; generated by Slic3r 0.9.7 on 2013-01-16 at 09:12:00

; layer_height = 0.4
; perimeters = 3
; top_solid_layers = 3
; bottom_solid_layers = 3
; fill_density = 0.4
; perimeter_speed = 30
; infill_speed = 60
; travel_speed = 130
; scale = 1
; nozzle_diameter = 0.5
; filament_diameter = 1.75
; extrusion_multiplier = 1
; perimeters extrusion width = 0.53mm
; infill extrusion width = 0.53mm
; first layer extrusion width = 1.00mm

M190 S75 ; wait for bed temperature to be reached
M104 S210 ; set temperature
G28 ; home all axes
M109 S210 ; wait for temperature to be reached
G90 ; use absolute coordinates
G21 ; set units to millimeters
G92 E0
M82 ; use absolute distances for extrusion
G1 F1800.000 E-1.00000
G92 E0
G1 Z0.500 F7800.000
G1 X34.160 Y52.652
G1 F1800.000 E1.00000
G1 X34.860 Y52.242 F540.000 E1.15054
G1 X35.610 Y51.922 E1.30186
G1 X36.130 Y51.752 E1.40338
G1 X36.930 Y51.582 E1.55515
G1 X48.950 Y49.762 E3.81113
G1 X51.370 Y49.412 E4.26489
G1 X52.760 Y49.232 E4.52498
G1 X54.120 Y49.112 E4.77834
G1 X84.760 Y48.602 E10.46501
G1 X86.050 Y48.632 E10.70446
G1 X87.720 Y48.782 E11.01561
G1 X102.820 Y50.812 E13.84294
G1 X104.140 Y51.052 E14.09191
G1 X104.700 Y51.182 E14.19859
G1 X105.630 Y51.442 E14.37779
G1 X106.980 Y51.912 E14.64305
G1 X107.490 Y52.112 E14.74471
G1 X108.680 Y52.652 E14.98721
G1 X109.510 Y53.092 E15.16154
G1 X110.330 Y53.582 E15.33881
G1 X111.050 Y54.062 E15.49939
G1 X112.130 Y54.872 E15.74991
G1 X112.560 Y55.232 E15.85398
G1 X113.270 Y55.872 E16.03136
G1 X114.120 Y56.722 E16.25443
G1 X114.760 Y57.432 E16.43181
G1 X115.120 Y57.862 E16.53588
G1 X115.700 Y58.622 E16.71329
G1 X116.020 Y59.082 E16.81728
G1 X116.540 Y59.892 E16.99590
G1 X116.790 Y60.302 E17.08501
G1 X117.250 Y61.142 E17.26273
G1 X117.880 Y62.502 E17.54087
G1 X118.080 Y63.012 E17.64253
G1 X118.500 Y64.212 E17.87846
G1 X118.760 Y65.092 E18.04874
G1 X118.980 Y66.022 E18.22609
G1 X119.090 Y66.612 E18.33746
G1 X119.270 Y67.852 E18.56998
G1 X119.350 Y68.822 E18.75059
G1 X119.380 Y69.772 E18.92697
G1 X119.350 Y71.172 E19.18683
G1 X119.270 Y72.142 E19.36745
G1 X119.090 Y73.392 E19.60180
G1 X118.760 Y74.882 E19.88500
G1 X118.490 Y75.812 E20.06471
G1 X118.090 Y76.962 E20.29066
G1 X117.880 Y77.492 E20.39645
G1 X117.490 Y78.362 E20.57337
G1 X117.250 Y78.852 E20.67462
G1 X116.790 Y79.692 E20.85235
G1 X116.520 Y80.142 E20.94973
G1 X115.730 Y81.332 E21.21479
G1 X115.150 Y82.102 E21.39368
G1 X114.760 Y82.562 E21.50560
G1 X114.120 Y83.272 E21.68298
G1 X113.270 Y84.122 E21.90605
G1 X112.560 Y84.762 E22.08343
G1 X112.130 Y85.122 E22.18750
G1 X111.050 Y85.932 E22.43802
G1 X110.270 Y86.442 E22.61096
G1 X109.220 Y87.052 E22.83630
G1 X108.360 Y87.492 E23.01557
G1 X107.490 Y87.882 E23.19250
G1 X106.980 Y88.082 E23.29415
G1 X105.560 Y88.572 E23.57291
G1 X104.210 Y88.922 E23.83171
G1 X103.270 Y89.112 E24.00968
G1 X102.820 Y89.182 E24.09419
G1 X87.720 Y91.212 E26.92151
G1 X86.370 Y91.342 E27.17319
G1 X85.410 Y91.382 E27.35149
G1 X62.410 Y91.022 E31.62014
G1 X54.120 Y90.872 E33.15877
G1 X52.760 Y90.762 E33.41197
G1 X51.370 Y90.582 E33.67207
G1 X48.950 Y90.232 E34.12582
G1 X36.930 Y88.412 E36.38180
G1 X36.130 Y88.242 E36.53358
G1 X35.610 Y88.072 E36.63510
G1 X35.110 Y87.872 E36.73503
G1 X34.620 Y87.622 E36.83711
G1 X34.160 Y87.342 E36.93705
G1 X33.510 Y86.852 E37.08810
G1 X33.100 Y86.482 E37.19058
G1 X32.730 Y86.082 E37.29170
G1 X32.240 Y85.442 E37.44128
G1 X31.950 Y84.972 E37.54376
G1 X31.710 Y84.492 E37.64335
G1 X31.410 Y83.732 E37.79497
G1 X31.260 Y83.212 E37.89540
G1 X31.150 Y82.672 E37.99767
G1 X31.070 Y81.862 E38.14871
G1 X31.070 Y58.132 E42.55230
G1 X31.090 Y57.862 E42.60254
G1 X31.150 Y57.322 E42.70337
G1 X31.330 Y56.522 E42.85554
G1 X31.600 Y55.752 E43.00696
G1 X31.950 Y55.022 E43.15719
G1 X32.090 Y54.782 E43.20875
G1 X32.400 Y54.332 E43.31015
G1 X32.730 Y53.912 E43.40927
G1 X32.920 Y53.702 E43.46183
G1 X33.300 Y53.322 E43.56155
G1 X33.720 Y52.972 E43.66301
G1 X34.050 Y52.728 E43.73913
G1 X34.160 Y52.652 E43.76397
G1 F1800.000 E42.76397
G92 E0
G1 X105.118 Y79.413 F7800.000
G1 F1800.000 E1.00000
G1 X104.754 Y79.602 F540.000 E1.07611
G1 X104.005 Y79.937 E1.22845
G1 X103.233 Y80.215 E1.38078
G1 X102.441 Y80.432 E1.53307
G1 X101.636 Y80.589 E1.68537
G1 X86.374 Y82.640 E4.54293
G1 X85.739 Y82.691 E4.66114
G1 X85.103 Y82.714 E4.77925
G1 X82.392 Y82.673 E5.28241
G1 X83.554 Y81.373 E5.60602
G1 X84.104 Y80.683 E5.76969
G1 X84.619 Y79.967 E5.93344
G1 X85.097 Y79.226 E6.09710
G1 X85.538 Y78.462 E6.26077
G1 X85.941 Y77.677 E6.42454
G1 X86.304 Y76.872 E6.58830
G1 X86.626 Y76.051 E6.75198
G1 X86.907 Y75.215 E6.91569
G1 X87.146 Y74.366 E7.07937
G1 X87.342 Y73.506 E7.24312
G1 X87.496 Y72.637 E7.40677
G1 X87.605 Y71.761 E7.57055
G1 X87.671 Y70.882 E7.73426
G1 X87.693 Y70.000 E7.89793
G1 X87.671 Y69.118 E8.06171
G1 X87.605 Y68.238 E8.22538
G1 X87.496 Y67.363 E8.38904
G1 X87.342 Y66.494 E8.55280
G1 X87.146 Y65.634 E8.71650
G1 X86.907 Y64.785 E8.88023
G1 X86.626 Y63.948 E9.04394
G1 X86.304 Y63.127 E9.20767
G1 X85.941 Y62.323 E9.37132
G1 X85.539 Y61.538 E9.53504
G1 X85.097 Y60.774 E9.69876
G1 X84.619 Y60.033 E9.86252
G1 X84.104 Y59.317 E10.02621
G1 X83.554 Y58.627 E10.18989
G1 X82.392 Y57.327 E10.51346
G1 X85.103 Y57.286 E11.01662
G1 X85.739 Y57.309 E11.13473
G1 X86.374 Y57.360 E11.25294
G1 X101.636 Y59.411 E14.11050
G1 X102.040 Y59.482 E14.18667
G1 X102.839 Y59.669 E14.33901
G1 X103.233 Y59.785 E14.41512
G1 X104.005 Y60.063 E14.56744
G1 X104.754 Y60.398 E14.71980
G1 X105.475 Y60.790 E14.87206
G1 X106.164 Y61.236 E15.02434
G1 X106.817 Y61.734 E15.17669
G1 X107.430 Y62.280 E15.32901
G1 X107.720 Y62.570 E15.40518
G1 X108.266 Y63.183 E15.55748
G1 X108.764 Y63.836 E15.70982
G1 X108.993 Y64.176 E15.78596
G1 X109.413 Y64.882 E15.93832
G1 X109.602 Y65.246 E16.01441
G1 X109.937 Y65.995 E16.16679
G1 X110.084 Y66.379 E16.24296
G1 X110.215 Y66.767 E16.31908
G1 X110.432 Y67.559 E16.47138
G1 X110.518 Y67.960 E16.54757
G1 X110.643 Y68.771 E16.69990
G1 X110.683 Y69.180 E16.77608
G1 X110.714 Y70.000 E16.92835
G1 X110.683 Y70.820 E17.08062
G1 X110.643 Y71.229 E17.15681
G1 X110.518 Y72.040 E17.30913
G1 X110.432 Y72.441 E17.38531
G1 X110.215 Y73.233 E17.53762
G1 X110.084 Y73.621 E17.61374
G1 X109.937 Y74.005 E17.68991
G1 X109.602 Y74.754 E17.84229
G1 X109.413 Y75.118 E17.91838
G1 X108.993 Y75.824 E18.07074
G1 X108.764 Y76.164 E18.14689
G1 X108.266 Y76.817 E18.29921
G1 X107.720 Y77.430 E18.45152
G1 X107.430 Y77.720 E18.52769
G1 X106.817 Y78.266 E18.68001
G1 X106.495 Y78.521 E18.75616
G1 X105.824 Y78.993 E18.90849
G1 X105.235 Y79.346 E19.03599
G1 X105.118 Y79.413 E19.06084
G1 X105.545 Y80.197 F7800.000
G1 X104.748 Y80.591 F540.000 E19.22578
G1 X103.923 Y80.924 E19.39086
G1 X103.076 Y81.192 E19.55580
G1 X102.210 Y81.395 E19.72082
G1 X101.772 Y81.471 E19.80335
G1 X86.691 Y83.501 E22.62720
G1 X86.019 Y83.569 E22.75253
G1 X85.111 Y83.606 E22.92103
G1 X80.035 Y83.527 E23.86326
G1 X81.117 Y82.597 E24.12812
G1 X81.731 Y82.027 E24.28356
G1 X82.316 Y81.427 E24.43905
G1 X82.870 Y80.799 E24.59450
G1 X83.392 Y80.144 E24.74994
G1 X84.113 Y79.115 E24.98305
G1 X84.550 Y78.400 E25.13856
G1 X84.950 Y77.665 E25.29398
G1 X85.355 Y76.816 E25.46847
G1 X85.787 Y75.746 E25.68259
G1 X86.054 Y74.952 E25.83804
G1 X86.305 Y74.046 E26.01253
G1 X86.545 Y72.917 E26.22659
G1 X86.670 Y72.089 E26.38209
G1 X86.760 Y71.153 E26.55655
G1 X86.800 Y70.000 E26.77066
G1 X86.753 Y68.745 E27.00378
G1 X86.670 Y67.911 E27.15927
G1 X86.526 Y66.982 E27.33374
G1 X86.281 Y65.854 E27.54785
G1 X85.926 Y64.649 E27.78097
G1 X85.639 Y63.862 E27.93642
G1 X85.314 Y63.090 E28.09188
G1 X84.950 Y62.335 E28.24738
G1 X84.550 Y61.600 E28.40281
G1 X84.056 Y60.799 E28.57731
G1 X83.392 Y59.856 E28.79141
G1 X82.870 Y59.201 E28.94684
G1 X82.315 Y58.573 E29.10232
G1 X81.731 Y57.973 E29.25773
G1 X81.117 Y57.403 E29.41318
G1 X80.035 Y56.473 E29.67805
G1 X84.887 Y56.394 E30.57854
G1 X85.563 Y56.405 E30.70403
G1 X86.242 Y56.451 E30.83030
G1 X101.305 Y58.466 E33.65051
G1 X102.210 Y58.605 E33.82044
G1 X103.076 Y58.808 E33.98546
G1 X103.502 Y58.934 E34.06794
G1 X104.339 Y59.234 E34.23294
G1 X105.150 Y59.598 E34.39798
G1 X105.545 Y59.803 E34.48046
G1 X106.309 Y60.257 E34.64547
G1 X107.037 Y60.769 E34.81049
G1 X107.722 Y61.335 E34.97544
G1 X108.363 Y61.951 E35.14049
G1 X108.665 Y62.278 E35.22301
G1 X108.955 Y62.615 E35.30553
G1 X109.494 Y63.322 E35.47054
G1 X109.743 Y63.691 E35.55305
G1 X110.197 Y64.455 E35.71808
G1 X110.402 Y64.850 E35.80054
G1 X110.766 Y65.661 E35.96560
G1 X111.066 Y66.498 E36.13055
G1 X111.192 Y66.924 E36.21302
G1 X111.395 Y67.790 E36.37809
G1 X111.530 Y68.669 E36.54309
G1 X111.573 Y69.112 E36.62563
G1 X111.607 Y70.000 E36.79060
G1 X111.573 Y70.888 E36.95558
G1 X111.530 Y71.331 E37.03811
G1 X111.395 Y72.210 E37.20311
G1 X111.302 Y72.645 E37.28564
G1 X111.066 Y73.502 E37.45065
G1 X110.924 Y73.923 E37.53313
G1 X110.766 Y74.339 E37.61564
G1 X110.402 Y75.150 E37.78069
G1 X110.197 Y75.545 E37.86315
G1 X109.743 Y76.309 E38.02818
G1 X109.494 Y76.678 E38.11070
G1 X108.955 Y77.385 E38.27570
G1 X108.363 Y78.049 E38.44071
G1 X108.049 Y78.363 E38.52323
G1 X107.385 Y78.955 E38.68824
G1 X107.037 Y79.231 E38.77074
G1 X106.309 Y79.743 E38.93576
G1 X105.661 Y80.131 E39.07593
G1 X105.545 Y80.197 E39.10078
G1 X105.971 Y80.981 F7800.000
G1 X105.113 Y81.406 F540.000 E39.27845
G1 X104.225 Y81.764 E39.45619
G1 X103.312 Y82.053 E39.63385
G1 X102.380 Y82.271 E39.81155
G1 X101.908 Y82.353 E39.90043
G1 X86.564 Y84.415 E42.77340
G1 X85.601 Y84.487 E42.95255
G1 X84.879 Y84.499 E43.08658
G1 X77.025 Y84.371 E44.54425
G1 X78.631 Y83.363 E44.89607
G1 X79.286 Y82.916 E45.04325
G1 X79.989 Y82.379 E45.20743
G1 X80.820 Y81.661 E45.41121
G1 X81.661 Y80.820 E45.63197
G1 X82.437 Y79.918 E45.85271
G1 X82.969 Y79.211 E46.01690
G1 X83.574 Y78.295 E46.22066
G1 X84.156 Y77.257 E46.44142
G1 X84.537 Y76.459 E46.60559
G1 X84.948 Y75.441 E46.80937
G1 X85.313 Y74.309 E47.03011
G1 X85.592 Y73.152 E47.25088
G1 X85.743 Y72.280 E47.41505
G1 X85.863 Y71.189 E47.61880
G1 X85.908 Y70.000 E47.83958
G1 X85.863 Y68.811 E48.06033
G1 X85.730 Y67.629 E48.28109
G1 X85.573 Y66.758 E48.44526
G1 X85.313 Y65.692 E48.64904
G1 X84.948 Y64.559 E48.86980
G1 X84.500 Y63.457 E49.09054
G1 X84.156 Y62.743 E49.23775
G1 X83.574 Y61.705 E49.45849
G1 X82.916 Y60.714 E49.67924
G1 X82.379 Y60.011 E49.84342
G1 X81.661 Y59.180 E50.04720
G1 X80.820 Y58.339 E50.26796
G1 X80.225 Y57.814 E50.41515
G1 X79.286 Y57.084 E50.63590
G1 X78.631 Y56.637 E50.78308
G1 X77.025 Y55.629 E51.13491
G1 X84.879 Y55.501 E52.59257
G1 X86.084 Y55.541 E52.81629
G1 X86.803 Y55.613 E52.95027
G1 X101.908 Y57.647 E55.77870
G1 X102.848 Y57.829 E55.95639
G1 X103.771 Y58.083 E56.13409
G1 X104.673 Y58.406 E56.31178
G1 X105.547 Y58.798 E56.48949
G1 X105.971 Y59.019 E56.57834
G1 X106.795 Y59.508 E56.75603
G1 X107.578 Y60.059 E56.93374
G1 X108.316 Y60.668 E57.11140
G1 X109.006 Y61.332 E57.28913
G1 X109.644 Y62.047 E57.46683
G1 X110.224 Y62.809 E57.64453
G1 X110.492 Y63.206 E57.73340
G1 X110.981 Y64.029 E57.91111
G1 X111.202 Y64.454 E57.99994
G1 X111.594 Y65.328 E58.17767
G1 X111.764 Y65.775 E58.26652
G1 X111.917 Y66.228 E58.35535
G1 X112.171 Y67.152 E58.53305
G1 X112.271 Y67.620 E58.62194
G1 X112.417 Y68.566 E58.79961
G1 X112.463 Y69.043 E58.88850
G1 X112.500 Y70.000 E59.06618
G1 X112.463 Y70.957 E59.24386
G1 X112.417 Y71.434 E59.33274
G1 X112.271 Y72.380 E59.51042
G1 X112.171 Y72.848 E59.59930
G1 X111.917 Y73.772 E59.77700
G1 X111.764 Y74.225 E59.86584
G1 X111.594 Y74.672 E59.95468
G1 X111.202 Y75.546 E60.13241
G1 X110.981 Y75.971 E60.22124
G1 X110.492 Y76.794 E60.39896
G1 X110.224 Y77.191 E60.48783
G1 X109.644 Y77.953 E60.66552
G1 X109.006 Y78.668 E60.84323
G1 X108.668 Y79.006 E60.93209
G1 X107.953 Y79.644 E61.10979
G1 X107.578 Y79.941 E61.19865
G1 X106.795 Y80.492 E61.37636
G1 X106.088 Y80.915 E61.52920
G1 X105.971 Y80.981 E61.55405
G1 X105.079 Y80.976 F7800.000
G1 F1800.000 E60.55405
G92 E0
G1 X57.213 Y82.264 F7800.000
G1 F1800.000 E1.00000
G1 X54.727 Y82.221 F540.000 E1.46144
G1 X53.640 Y82.124 E1.66383
G1 X50.245 Y81.649 E2.29995
G1 X39.753 Y80.063 E4.26909
G1 X39.753 Y59.937 E8.00387
G1 X50.245 Y58.351 E9.97300
G1 X53.640 Y57.876 E10.60913
G1 X54.727 Y57.779 E10.81152
G1 X57.213 Y57.736 E11.27294
G1 X56.167 Y58.968 E11.57284
G1 X55.634 Y59.672 E11.73657
G1 X55.137 Y60.400 E11.90025
G1 X54.677 Y61.154 E12.06406
G1 X54.255 Y61.928 E12.22770
G1 X53.873 Y62.723 E12.39140
G1 X53.530 Y63.536 E12.55513
G1 X53.228 Y64.365 E12.71884
G1 X52.968 Y65.208 E12.88250
G1 X52.750 Y66.063 E13.04631
G1 X52.576 Y66.927 E13.20995
G1 X52.444 Y67.800 E13.37374
G1 X52.356 Y68.677 E13.53735
G1 X52.307 Y70.000 E13.78294
G1 X52.329 Y70.882 E13.94673
G1 X52.395 Y71.762 E14.11039
G1 X52.504 Y72.637 E14.27405
G1 X52.597 Y73.184 E14.37704
G1 X52.750 Y73.937 E14.51967
G1 X52.968 Y74.792 E14.68337
G1 X53.228 Y75.635 E14.84703
G1 X53.530 Y76.464 E15.01075
G1 X53.872 Y77.277 E15.17446
G1 X54.255 Y78.072 E15.33826
G1 X54.677 Y78.847 E15.50195
G1 X55.137 Y79.599 E15.66561
G1 X55.896 Y80.683 E15.91119
G1 X56.446 Y81.373 E16.07487
G1 X57.125 Y82.162 E16.26813
G1 X57.213 Y82.264 E16.29298
G1 X57.973 Y81.731 F7800.000
G1 X58.573 Y82.316 F540.000 E16.44847
G1 X59.544 Y83.195 E16.69153
G1 X54.687 Y83.113 E17.59292
G1 X53.530 Y83.010 E17.80854
G1 X50.306 Y82.560 E18.41255
G1 X38.861 Y80.830 E20.56064
G1 X38.861 Y59.170 E24.58015
G1 X50.114 Y57.468 E26.69221
G1 X52.386 Y57.140 E27.11826
G1 X53.745 Y56.965 E27.37236
G1 X54.907 Y56.881 E27.58866
G1 X59.544 Y56.806 E28.44920
G1 X58.573 Y57.685 E28.69225
G1 X57.973 Y58.269 E28.84767
G1 X57.403 Y58.883 E29.00311
G1 X56.865 Y59.525 E29.15856
G1 X56.359 Y60.193 E29.31403
G1 X55.887 Y60.885 E29.46946
G1 X55.450 Y61.600 E29.62497
G1 X55.050 Y62.335 E29.78038
G1 X54.686 Y63.090 E29.93582
G1 X54.361 Y63.862 E30.09128
G1 X54.074 Y64.649 E30.24673
G1 X53.828 Y65.450 E30.40215
G1 X53.621 Y66.262 E30.55766
G1 X53.455 Y67.083 E30.71307
G1 X53.330 Y67.911 E30.86857
G1 X53.247 Y68.744 E31.02395
G1 X53.205 Y69.581 E31.17942
G1 X53.209 Y70.522 E31.35395
G1 X53.283 Y71.673 E31.56805
G1 X53.387 Y72.504 E31.72347
G1 X53.533 Y73.329 E31.87895
G1 X53.719 Y74.146 E32.03439
G1 X53.946 Y74.952 E32.18985
G1 X54.213 Y75.746 E32.34530
G1 X54.519 Y76.526 E32.50077
G1 X54.863 Y77.289 E32.65618
G1 X55.246 Y78.035 E32.81164
G1 X55.664 Y78.760 E32.96709
G1 X56.119 Y79.464 E33.12258
G1 X56.608 Y80.144 E33.27801
G1 X57.130 Y80.799 E33.43344
G1 X57.881 Y81.634 E33.64174
G1 X57.973 Y81.731 E33.66658
G1 X58.612 Y81.107 F7800.000
G1 X59.474 Y81.927 F540.000 E33.88734
G1 X60.395 Y82.681 E34.10811
G1 X61.039 Y83.144 E34.25530
G1 X62.535 Y84.136 E34.58841
G1 X54.887 Y84.012 E36.00784
G1 X54.413 Y83.991 E36.09576
G1 X53.652 Y83.923 E36.23754
G1 X52.265 Y83.744 E36.49715
G1 X49.983 Y83.415 E36.92499
G1 X37.968 Y81.596 E39.18003
G1 X37.968 Y58.404 E43.48375
G1 X49.983 Y56.585 E45.73878
G1 X52.265 Y56.256 E46.16663
G1 X53.652 Y56.077 E46.42623
G1 X54.413 Y56.009 E46.56802
G1 X54.887 Y55.988 E46.65594
G1 X62.534 Y55.864 E48.07516
G1 X60.714 Y57.084 E48.48164
G1 X60.082 Y57.563 E48.62885
G1 X59.474 Y58.073 E48.77604
G1 X58.893 Y58.612 E48.92322
G1 X58.073 Y59.474 E49.14398
G1 X57.563 Y60.082 E49.29117
G1 X57.084 Y60.714 E49.43837
G1 X56.588 Y61.447 E49.60254
G1 X56.030 Y62.392 E49.80630
G1 X55.668 Y63.098 E49.95351
G1 X55.192 Y64.188 E50.17426
G1 X54.921 Y64.934 E50.32145
G1 X54.584 Y66.075 E50.54221
G1 X54.408 Y66.848 E50.68940
G1 X54.270 Y67.629 E50.83658
G1 X54.137 Y68.811 E51.05733
G1 X54.097 Y69.603 E51.20453
G1 X54.097 Y70.397 E51.35172
G1 X54.137 Y71.189 E51.49891
G1 X54.216 Y71.978 E51.64611
G1 X54.351 Y72.852 E51.81027
G1 X54.584 Y73.925 E52.01405
G1 X54.799 Y74.689 E52.16125
G1 X55.052 Y75.441 E52.30843
G1 X55.500 Y76.543 E52.52918
G1 X55.844 Y77.257 E52.67639
G1 X56.224 Y77.954 E52.82358
G1 X56.637 Y78.631 E52.97075
G1 X57.319 Y79.605 E53.19152
G1 X57.814 Y80.225 E53.33871
G1 X58.520 Y81.010 E53.53462
G1 X58.612 Y81.107 E53.55947
G1 X58.827 Y81.996 F7800.000
G1 F1800.000 E52.55947
G92 E0
G1 X84.648 Y82.135 F7800.000
G1 F1800.000 E1.00000
G1 X84.079 Y81.567 F1080.000 E1.15273
G1 X84.620 Y80.815 E1.32879
G1 X85.889 Y82.084 E1.66990
G1 X87.069 Y81.971 E1.89522
