; generated by Slic3r 0.9.7 on 2013-03-07 at 23:07:56

; layer_height = 0.1
; perimeters = 3
; top_solid_layers = 9
; bottom_solid_layers = 9
; fill_density = 0.4
; perimeter_speed = 20
; infill_speed = 60
; travel_speed = 130
; scale = 1
; nozzle_diameter = 0.5
; filament_diameter = 1.75
; extrusion_multiplier = 1
; perimeters extrusion width = 0.70mm
; infill extrusion width = 0.70mm
; first layer extrusion width = 0.20mm

M190 S70 ; wait for bed temperature to be reached
M104 S195 ; set temperature
G28 ; home all axes
M109 S195 ; wait for temperature to be reached
G90 ; use absolute coordinates
G21 ; set units to millimeters
G92 E0
M82 ; use absolute distances for extrusion
G1 F1800.000 E-1.00000
G92 E0
G1 Z0.100 F7800.000
G1 X33.630 Y17.960
G1 F1800.000 E1.00000
G1 X34.190 Y16.930 F360.000 E1.01289
G1 X34.690 Y16.070 E1.02382
G1 X35.390 Y14.950 E1.03834
G1 X35.720 Y14.480 E1.04465
G1 X36.090 Y14.040 E1.05097
G1 X36.490 Y13.640 E1.05719
G1 X36.930 Y13.270 E1.06351
G1 X37.410 Y12.950 E1.06985
G1 X37.910 Y12.670 E1.07615
G1 X49.830 Y6.730 E1.22253
G1 X50.800 Y6.330 E1.23407
G1 X51.410 Y6.120 E1.24116
G1 X51.880 Y5.990 E1.24652
G1 X52.720 Y5.800 E1.25598
G1 X53.260 Y5.710 E1.26200
G1 X54.250 Y5.610 E1.27294
G1 X54.740 Y5.590 E1.27833
G1 X85.250 Y5.590 E1.61368
G1 X86.240 Y5.650 E1.62459
G1 X87.270 Y5.800 E1.63603
G1 X88.110 Y5.990 E1.64549
G1 X88.580 Y6.120 E1.65085
G1 X89.240 Y6.340 E1.65850
G1 X90.150 Y6.730 E1.66938
G1 X102.080 Y12.670 E1.81587
G1 X102.580 Y12.950 E1.82217
G1 X102.820 Y13.110 E1.82534
G1 X103.050 Y13.270 E1.82842
G1 X103.500 Y13.640 E1.83482
G1 X103.900 Y14.040 E1.84104
G1 X104.440 Y14.710 E1.85050
G1 X105.190 Y15.890 E1.86587
G1 X105.800 Y16.930 E1.87912
G1 X106.450 Y18.130 E1.89412
G1 X106.900 Y19.020 E1.90508
G1 X107.390 Y20.050 E1.91762
G1 X107.930 Y21.270 E1.93228
G1 X108.400 Y22.420 E1.94594
G1 X108.830 Y23.590 E1.95964
G1 X109.500 Y25.680 E1.98376
G1 X109.840 Y26.910 E1.99779
G1 X110.250 Y28.650 E2.01744
G1 X110.530 Y30.110 E2.03378
G1 X110.760 Y31.520 E2.04948
G1 X110.960 Y33.200 E2.06808
G1 X111.070 Y34.430 E2.08165
G1 X111.120 Y35.370 E2.09200
G1 X111.150 Y37.400 E2.11432
G1 X111.150 Y102.590 E2.83086
G1 X111.120 Y104.620 E2.85318
G1 X111.070 Y105.560 E2.86352
G1 X110.950 Y106.920 E2.87853
G1 X110.840 Y107.910 E2.88948
G1 X110.670 Y109.090 E2.90258
G1 X110.440 Y110.460 E2.91785
G1 X110.240 Y111.430 E2.92874
G1 X109.970 Y112.580 E2.94172
G1 X109.490 Y114.360 E2.96199
G1 X108.830 Y116.400 E2.98555
G1 X108.400 Y117.570 E2.99926
G1 X107.930 Y118.720 E3.01291
G1 X107.390 Y119.940 E3.02758
G1 X106.900 Y120.970 E3.04011
G1 X106.450 Y121.860 E3.05108
G1 X105.800 Y123.060 E3.06608
G1 X105.300 Y123.920 E3.07701
G1 X104.360 Y125.390 E3.09619
G1 X104.020 Y125.820 E3.10221
G1 X103.640 Y126.220 E3.10828
G1 X103.020 Y126.750 E3.11724
G1 X102.560 Y127.050 E3.12328
G1 X102.080 Y127.320 E3.12933
G1 X90.150 Y133.260 E3.27582
G1 X89.690 Y133.470 E3.28138
G1 X89.240 Y133.650 E3.28671
G1 X88.580 Y133.870 E3.29435
G1 X87.740 Y134.090 E3.30390
G1 X86.730 Y134.280 E3.31519
G1 X86.240 Y134.340 E3.32062
G1 X85.370 Y134.400 E3.33020
G1 X55.000 Y134.410 E3.66402
G1 X53.750 Y134.340 E3.67778
G1 X52.720 Y134.190 E3.68922
G1 X51.880 Y134.000 E3.69869
G1 X51.410 Y133.870 E3.70405
G1 X50.800 Y133.660 E3.71114
G1 X49.830 Y133.260 E3.72267
G1 X37.910 Y127.320 E3.86906
G1 X37.410 Y127.040 E3.87536
G1 X36.930 Y126.720 E3.88170
G1 X36.490 Y126.350 E3.88802
G1 X36.090 Y125.950 E3.89424
G1 X35.550 Y125.280 E3.90370
G1 X34.800 Y124.100 E3.91906
G1 X34.190 Y123.060 E3.93232
G1 X33.540 Y121.860 E3.94732
G1 X33.090 Y120.970 E3.95828
G1 X32.600 Y119.940 E3.97082
G1 X32.060 Y118.720 E3.98548
G1 X31.590 Y117.570 E3.99914
G1 X31.160 Y116.400 E4.01284
G1 X30.560 Y114.530 E4.03443
G1 X30.210 Y113.310 E4.04838
G1 X29.920 Y112.150 E4.06152
G1 X29.670 Y111.010 E4.07435
G1 X29.450 Y109.830 E4.08754
G1 X29.240 Y108.530 E4.10202
G1 X29.110 Y107.540 E4.11299
G1 X28.970 Y106.120 E4.12867
G1 X28.870 Y104.390 E4.14772
G1 X28.840 Y102.590 E4.16751
G1 X28.840 Y37.400 E4.88406
G1 X28.880 Y35.310 E4.90703
G1 X28.990 Y33.630 E4.92554
G1 X29.110 Y32.450 E4.93858
G1 X29.240 Y31.460 E4.94955
G1 X29.450 Y30.160 E4.96402
G1 X29.670 Y28.980 E4.97722
G1 X29.880 Y28.010 E4.98813
G1 X30.210 Y26.680 E5.00319
G1 X30.490 Y25.680 E5.01460
G1 X31.180 Y23.520 E5.03953
G1 X31.800 Y21.890 E5.05870
G1 X32.350 Y20.600 E5.07411
G1 X32.760 Y19.700 E5.08498
G1 X33.612 Y17.995 E5.10593
G1 X33.630 Y17.960 E5.10636
G1 F1800.000 E4.10636
G92 E0
G1 X52.794 Y118.817 F7800.000
G1 F1800.000 E1.00000
G1 X53.305 Y118.538 F540.000 E1.00640
G1 X53.850 Y118.335 E1.01280
G1 X54.419 Y118.211 E1.01920
G1 X55.000 Y118.170 E1.02560
G1 X55.581 Y118.211 E1.03199
G1 X56.150 Y118.335 E1.03840
G1 X56.695 Y118.538 E1.04479
G1 X57.206 Y118.817 E1.05119
G1 X57.672 Y119.166 E1.05759
G1 X58.084 Y119.578 E1.06399
G1 X58.433 Y120.044 E1.07039
G1 X58.712 Y120.555 E1.07679
G1 X58.915 Y121.100 E1.08319
G1 X59.039 Y121.669 E1.08959
G1 X59.080 Y122.250 E1.09599
G1 X59.039 Y122.831 E1.10239
G1 X58.915 Y123.400 E1.10879
G1 X58.712 Y123.945 E1.11519
G1 X58.433 Y124.456 E1.12158
G1 X58.084 Y124.922 E1.12798
G1 X57.672 Y125.334 E1.13438
G1 X57.206 Y125.683 E1.14078
G1 X56.695 Y125.962 E1.14718
G1 X56.150 Y126.165 E1.15358
G1 X55.581 Y126.289 E1.15998
G1 X55.000 Y126.330 E1.16638
G1 X54.419 Y126.289 E1.17278
G1 X53.850 Y126.165 E1.17918
G1 X53.305 Y125.962 E1.18558
G1 X52.794 Y125.683 E1.19197
G1 X52.328 Y125.334 E1.19837
G1 X51.916 Y124.922 E1.20477
G1 X51.567 Y124.456 E1.21117
G1 X51.288 Y123.945 E1.21757
G1 X51.085 Y123.400 E1.22397
G1 X50.961 Y122.831 E1.23037
G1 X50.920 Y122.250 E1.23677
G1 X50.961 Y121.669 E1.24317
G1 X51.085 Y121.100 E1.24957
G1 X51.288 Y120.555 E1.25597
G1 X51.567 Y120.044 E1.26236
G1 X51.916 Y119.578 E1.26876
G1 X52.328 Y119.166 E1.27516
G1 X52.762 Y118.841 E1.28113
G1 X52.794 Y118.817 E1.28156
G1 X52.937 Y119.040 F7800.000
G1 X53.415 Y118.780 F540.000 E1.28754
G1 X53.925 Y118.589 E1.29353
G1 X54.457 Y118.474 E1.29951
G1 X55.000 Y118.435 E1.30550
G1 X55.543 Y118.473 E1.31148
G1 X56.075 Y118.589 E1.31746
G1 X56.585 Y118.780 E1.32345
G1 X57.063 Y119.040 E1.32943
G1 X57.499 Y119.367 E1.33541
G1 X57.883 Y119.751 E1.34140
G1 X58.210 Y120.187 E1.34738
G1 X58.470 Y120.665 E1.35336
G1 X58.661 Y121.175 E1.35935
G1 X58.776 Y121.707 E1.36533
G1 X58.815 Y122.250 E1.37131
G1 X58.776 Y122.793 E1.37730
G1 X58.661 Y123.325 E1.38328
G1 X58.470 Y123.835 E1.38926
G1 X58.210 Y124.313 E1.39525
G1 X57.883 Y124.749 E1.40123
G1 X57.499 Y125.133 E1.40721
G1 X57.063 Y125.460 E1.41320
G1 X56.585 Y125.720 E1.41918
G1 X56.075 Y125.911 E1.42516
G1 X55.543 Y126.026 E1.43115
G1 X55.000 Y126.065 E1.43713
G1 X54.457 Y126.026 E1.44312
G1 X53.925 Y125.911 E1.44910
G1 X53.415 Y125.720 E1.45508
G1 X52.937 Y125.460 E1.46107
G1 X52.501 Y125.133 E1.46705
G1 X52.117 Y124.748 E1.47303
G1 X51.790 Y124.313 E1.47902
G1 X51.530 Y123.835 E1.48500
G1 X51.339 Y123.325 E1.49098
G1 X51.224 Y122.793 E1.49697
G1 X51.185 Y122.250 E1.50295
G1 X51.224 Y121.707 E1.50893
G1 X51.339 Y121.175 E1.51492
G1 X51.530 Y120.665 E1.52090
G1 X51.790 Y120.187 E1.52688
G1 X52.117 Y119.752 E1.53287
G1 X52.501 Y119.367 E1.53885
G1 X52.906 Y119.064 E1.54440
G1 X52.937 Y119.040 E1.54483
G1 X53.081 Y119.263 F7800.000
G1 X53.525 Y119.021 F540.000 E1.55040
G1 X54.000 Y118.843 E1.55597
G1 X54.495 Y118.736 E1.56154
G1 X55.000 Y118.700 E1.56710
G1 X55.505 Y118.736 E1.57267
G1 X56.000 Y118.844 E1.57824
G1 X56.475 Y119.021 E1.58381
G1 X56.919 Y119.263 E1.58938
G1 X57.325 Y119.567 E1.59494
G1 X57.683 Y119.925 E1.60051
G1 X57.987 Y120.331 E1.60608
G1 X58.229 Y120.775 E1.61165
G1 X58.406 Y121.250 E1.61721
G1 X58.514 Y121.745 E1.62278
G1 X58.550 Y122.250 E1.62835
G1 X58.514 Y122.755 E1.63392
G1 X58.406 Y123.250 E1.63949
G1 X58.229 Y123.725 E1.64505
G1 X57.987 Y124.169 E1.65062
G1 X57.683 Y124.575 E1.65619
G1 X57.325 Y124.933 E1.66176
G1 X56.919 Y125.237 E1.66732
G1 X56.475 Y125.479 E1.67289
G1 X56.000 Y125.656 E1.67846
G1 X55.505 Y125.764 E1.68403
G1 X55.000 Y125.800 E1.68960
G1 X54.495 Y125.764 E1.69516
G1 X54.000 Y125.657 E1.70073
G1 X53.525 Y125.479 E1.70630
G1 X53.081 Y125.237 E1.71187
G1 X52.675 Y124.933 E1.71744
G1 X52.317 Y124.575 E1.72300
G1 X52.013 Y124.169 E1.72857
G1 X51.771 Y123.725 E1.73414
G1 X51.594 Y123.250 E1.73971
G1 X51.486 Y122.755 E1.74527
G1 X51.450 Y122.250 E1.75084
G1 X51.486 Y121.745 E1.75641
G1 X51.594 Y121.250 E1.76198
G1 X51.771 Y120.775 E1.76755
G1 X52.013 Y120.331 E1.77311
G1 X52.317 Y119.925 E1.77868
G1 X52.675 Y119.567 E1.78425
G1 X53.049 Y119.287 E1.78938
G1 X53.081 Y119.263 E1.78982
G1 F1800.000 E0.78982
G92 E0
G1 X80.961 Y121.669 F7800.000
G1 F1800.000 E1.00000
G1 X81.085 Y121.100 F540.000 E1.00640
G1 X81.288 Y120.555 E1.01280
G1 X81.567 Y120.044 E1.01920
G1 X81.916 Y119.578 E1.02560
G1 X82.328 Y119.166 E1.03200
G1 X82.794 Y118.817 E1.03840
G1 X83.305 Y118.538 E1.04479
G1 X83.850 Y118.335 E1.05119
G1 X84.419 Y118.211 E1.05759
G1 X85.000 Y118.170 E1.06399
G1 X85.581 Y118.211 E1.07039
G1 X86.150 Y118.335 E1.07679
G1 X86.695 Y118.538 E1.08319
G1 X87.206 Y118.817 E1.08959
G1 X87.672 Y119.166 E1.09599
G1 X88.084 Y119.578 E1.10239
G1 X88.433 Y120.044 E1.10879
G1 X88.712 Y120.555 E1.11518
G1 X88.915 Y121.100 E1.12158
G1 X89.039 Y121.669 E1.12798
G1 X89.080 Y122.250 E1.13438
G1 X89.039 Y122.831 E1.14078
G1 X88.915 Y123.400 E1.14718
G1 X88.712 Y123.945 E1.15358
G1 X88.433 Y124.456 E1.15998
G1 X88.084 Y124.922 E1.16638
G1 X87.672 Y125.334 E1.17278
G1 X87.206 Y125.683 E1.17918
G1 X86.695 Y125.962 E1.18557
G1 X86.150 Y126.165 E1.19197
G1 X85.581 Y126.289 E1.19837
G1 X85.000 Y126.330 E1.20477
G1 X84.419 Y126.289 E1.21117
G1 X83.850 Y126.165 E1.21757
G1 X83.305 Y125.962 E1.22397
G1 X82.794 Y125.683 E1.23037
G1 X82.328 Y125.334 E1.23677
G1 X81.916 Y124.922 E1.24317
G1 X81.567 Y124.456 E1.24957
G1 X81.288 Y123.945 E1.25596
G1 X81.085 Y123.400 E1.26236
G1 X80.961 Y122.831 E1.26876
G1 X80.920 Y122.250 E1.27516
G1 X80.958 Y121.709 E1.28113
G1 X80.961 Y121.669 E1.28156
G1 X81.224 Y121.707 F7800.000
G1 X81.339 Y121.175 F540.000 E1.28755
G1 X81.530 Y120.665 E1.29353
G1 X81.790 Y120.187 E1.29951
G1 X82.117 Y119.752 E1.30550
G1 X82.501 Y119.367 E1.31148
G1 X82.937 Y119.040 E1.31746
G1 X83.415 Y118.780 E1.32345
G1 X83.925 Y118.589 E1.32943
G1 X84.457 Y118.474 E1.33541
G1 X85.000 Y118.435 E1.34140
G1 X85.543 Y118.473 E1.34738
G1 X86.075 Y118.589 E1.35336
G1 X86.585 Y118.780 E1.35935
G1 X87.063 Y119.040 E1.36533
G1 X87.499 Y119.367 E1.37131
G1 X87.883 Y119.751 E1.37730
G1 X88.210 Y120.187 E1.38328
G1 X88.470 Y120.665 E1.38926
G1 X88.661 Y121.175 E1.39525
G1 X88.776 Y121.707 E1.40123
G1 X88.815 Y122.250 E1.40721
G1 X88.776 Y122.793 E1.41320
G1 X88.661 Y123.325 E1.41918
G1 X88.470 Y123.835 E1.42517
G1 X88.210 Y124.313 E1.43115
G1 X87.883 Y124.749 E1.43713
G1 X87.499 Y125.133 E1.44312
G1 X87.063 Y125.460 E1.44910
G1 X86.585 Y125.720 E1.45508
G1 X86.075 Y125.911 E1.46107
G1 X85.543 Y126.026 E1.46705
G1 X85.000 Y126.065 E1.47303
G1 X84.457 Y126.026 E1.47902
G1 X83.925 Y125.911 E1.48500
G1 X83.415 Y125.720 E1.49098
G1 X82.937 Y125.460 E1.49697
G1 X82.501 Y125.133 E1.50295
G1 X82.117 Y124.748 E1.50893
G1 X81.790 Y124.313 E1.51492
G1 X81.530 Y123.835 E1.52090
G1 X81.339 Y123.325 E1.52688
G1 X81.224 Y122.793 E1.53287
G1 X81.185 Y122.250 E1.53885
G1 X81.221 Y121.747 E1.54440
G1 X81.224 Y121.707 E1.54483
G1 X81.486 Y121.745 F7800.000
G1 X81.594 Y121.250 F540.000 E1.55040
G1 X81.771 Y120.775 E1.55597
G1 X82.013 Y120.331 E1.56154
G1 X82.317 Y119.925 E1.56711
G1 X82.675 Y119.567 E1.57267
G1 X83.081 Y119.263 E1.57824
G1 X83.525 Y119.021 E1.58381
G1 X84.000 Y118.843 E1.58938
G1 X84.495 Y118.736 E1.59494
G1 X85.000 Y118.700 E1.60051
G1 X85.505 Y118.736 E1.60608
G1 X86.000 Y118.844 E1.61165
G1 X86.475 Y119.021 E1.61722
G1 X86.919 Y119.263 E1.62278
G1 X87.325 Y119.567 E1.62835
G1 X87.683 Y119.925 E1.63392
G1 X87.987 Y120.331 E1.63949
G1 X88.229 Y120.775 E1.64505
G1 X88.406 Y121.250 E1.65062
G1 X88.514 Y121.745 E1.65619
G1 X88.550 Y122.250 E1.66176
G1 X88.514 Y122.755 E1.66732
G1 X88.406 Y123.250 E1.67289
G1 X88.229 Y123.725 E1.67846
G1 X87.987 Y124.169 E1.68403
G1 X87.683 Y124.575 E1.68960
G1 X87.325 Y124.933 E1.69516
G1 X86.919 Y125.237 E1.70073
G1 X86.475 Y125.479 E1.70630
G1 X86.000 Y125.656 E1.71187
G1 X85.505 Y125.764 E1.71744
G1 X85.000 Y125.800 E1.72300
G1 X84.495 Y125.764 E1.72857
G1 X84.000 Y125.656 E1.73414
G1 X83.525 Y125.479 E1.73971
G1 X83.081 Y125.237 E1.74527
G1 X82.675 Y124.933 E1.75084
G1 X82.317 Y124.575 E1.75641
G1 X82.013 Y124.169 E1.76198
G1 X81.771 Y123.725 E1.76754
G1 X81.594 Y123.250 E1.77311
G1 X81.486 Y122.755 E1.77868
G1 X81.450 Y122.250 E1.78425
G1 X81.483 Y121.784 E1.78938
G1 X81.486 Y121.745 E1.78982
G1 F1800.000 E0.78982
G92 E0
G1 X37.722 Y114.559 F7800.000
G1 F1800.000 E1.00000
G1 X44.057 Y112.253 F360.000 E1.07410
G1 X44.426 Y113.205 E1.08533
G1 X45.044 Y114.606 E1.10216
G1 X45.740 Y115.971 E1.11899
G1 X46.440 Y117.195 E1.13450
G1 X55.012 Y116.879 E1.22877
G1 X61.234 Y116.879 E1.29717
G1 X62.290 Y117.483 E1.31054
G1 X63.220 Y117.934 E1.32190
G1 X64.178 Y118.326 E1.33328
G1 X65.158 Y118.658 E1.34465
G1 X66.156 Y118.928 E1.35602
G1 X66.662 Y119.040 E1.36171
G1 X67.667 Y119.214 E1.37292
G1 X68.709 Y119.329 E1.38444
G1 X69.742 Y119.377 E1.39581
G1 X70.776 Y119.361 E1.40718
G1 X71.807 Y119.280 E1.41855
G1 X72.320 Y119.216 E1.42423
G1 X73.326 Y119.043 E1.43545
G1 X74.345 Y118.801 E1.44696
G1 X75.335 Y118.500 E1.45834
G1 X76.291 Y118.143 E1.46956
G1 X76.779 Y117.934 E1.47539
G1 X77.710 Y117.483 E1.48676
G1 X78.766 Y116.879 E1.50013
G1 X84.988 Y116.879 E1.56853
G1 X93.560 Y117.195 E1.66280
G1 X94.260 Y115.971 E1.67830
G1 X94.956 Y114.606 E1.69513
G1 X95.574 Y113.205 E1.71197
G1 X95.943 Y112.253 E1.72320
G1 X102.278 Y114.559 E1.79730
G1 X101.660 Y116.130 E1.81586
G1 X101.265 Y117.028 E1.82664
G1 X100.845 Y117.915 E1.83743
G1 X100.399 Y118.790 E1.84822
G1 X99.929 Y119.651 E1.85901
G1 X99.434 Y120.499 E1.86980
G1 X98.934 Y121.302 E1.88020
G1 X87.157 Y127.168 E2.02481
G1 X86.744 Y127.330 E2.02969
G1 X86.318 Y127.456 E2.03457
G1 X85.884 Y127.547 E2.03945
G1 X85.444 Y127.602 E2.04433
G1 X84.987 Y127.621 E2.04935
G1 X55.013 Y127.621 E2.37882
G1 X54.556 Y127.602 E2.38384
G1 X54.116 Y127.547 E2.38872
G1 X53.682 Y127.456 E2.39360
G1 X53.256 Y127.330 E2.39848
G1 X52.843 Y127.168 E2.40335
G1 X41.066 Y121.302 E2.54797
G1 X40.566 Y120.499 E2.55836
G1 X40.072 Y119.652 E2.56915
G1 X39.601 Y118.790 E2.57994
G1 X39.155 Y117.915 E2.59073
G1 X38.735 Y117.028 E2.60152
G1 X38.340 Y116.130 E2.61231
G1 X37.735 Y114.596 E2.63043
G1 X37.722 Y114.559 E2.63087
G1 X37.548 Y114.853 F7800.000
G1 X37.383 Y114.401 F360.000 E2.63616
G1 X44.217 Y111.913 E2.71610
G1 X44.670 Y113.105 E2.73012
G1 X45.283 Y114.493 E2.74679
G1 X45.972 Y115.844 E2.76346
G1 X46.589 Y116.925 E2.77714
G1 X55.007 Y116.614 E2.86972
G1 X61.310 Y116.614 E2.93901
G1 X61.965 Y117.006 E2.94740
G1 X62.412 Y117.249 E2.95299
G1 X63.328 Y117.693 E2.96418
G1 X63.796 Y117.893 E2.96978
G1 X64.741 Y118.246 E2.98086
G1 X65.723 Y118.546 E2.99215
G1 X66.714 Y118.781 E3.00335
G1 X67.214 Y118.876 E3.00894
G1 X68.213 Y119.016 E3.02002
G1 X69.237 Y119.097 E3.03131
G1 X70.255 Y119.112 E3.04250
G1 X71.271 Y119.065 E3.05369
G1 X72.283 Y118.954 E3.06487
G1 X72.786 Y118.875 E3.07047
G1 X73.774 Y118.673 E3.08156
G1 X74.766 Y118.405 E3.09285
G1 X75.730 Y118.079 E3.10403
G1 X76.672 Y117.693 E3.11522
G1 X77.588 Y117.249 E3.12641
G1 X78.035 Y117.006 E3.13200
G1 X78.690 Y116.614 E3.14039
G1 X84.993 Y116.614 E3.20968
G1 X93.411 Y116.924 E3.30226
G1 X94.028 Y115.844 E3.31594
G1 X94.717 Y114.493 E3.33261
G1 X95.329 Y113.105 E3.34929
G1 X95.783 Y111.913 E3.36330
G1 X102.617 Y114.401 E3.44324
G1 X102.276 Y115.316 E3.45398
G1 X101.904 Y116.233 E3.46486
G1 X101.506 Y117.138 E3.47572
G1 X101.082 Y118.032 E3.48660
G1 X100.633 Y118.913 E3.49747
G1 X100.159 Y119.781 E3.50834
G1 X99.660 Y120.636 E3.51921
G1 X99.117 Y121.506 E3.53049
G1 X87.264 Y127.411 E3.67605
G1 X86.830 Y127.580 E3.68117
G1 X86.383 Y127.713 E3.68629
G1 X85.928 Y127.808 E3.69141
G1 X85.465 Y127.866 E3.69653
G1 X84.992 Y127.886 E3.70173
G1 X55.008 Y127.886 E4.03132
