; generated by Slic3r 0.9.7 on 2013-07-18 at 20:45:18

; layer_height = 0.15
; perimeters = 2
; top_solid_layers = 3
; bottom_solid_layers = 2
; fill_density = 0.2
; perimeter_speed = 30
; infill_speed = 48
; travel_speed = 250
; scale = 1
; nozzle_diameter = 0.5
; filament_diameter = 1.7
; extrusion_multiplier = 0.9
; perimeters extrusion width = 0.50mm
; infill extrusion width = 0.50mm
; first layer extrusion width = 0.50mm

M107
M190 S57 ; wait for bed temperature to be reached
M104 S180 ; set temperature
G1 Z0.15 F200
G1 X15 Y20 F12000
M109 S180 ; wait for temperature to be reached
G90 ; use absolute coordinates
G21 ; set units to millimeters
M83 ; use relative distances for extrusion
G1 F2220.000 E-1.60000
G1 Z0.300 F15000.000
G1 X51.250 Y53.593
G1 F2220.000 E1.60000
G1 X53.593 Y51.250 F720.000 E0.19709
G1 X86.407 Y51.250 E1.95165
G1 X88.750 Y53.593 E0.19709
G1 X88.750 Y86.407 E1.95165
G1 X86.407 Y88.750 E0.19709
G1 X53.593 Y88.750 E1.95165
G1 X51.250 Y86.407 E0.19709
G1 X51.250 Y53.668 E1.94719
G1 X51.250 Y53.593 E0.00446
G1 X51.750 Y53.800 F15000.000
G1 X53.800 Y51.750 F720.000 E0.17245
G1 X86.200 Y51.750 E1.92701
G1 X88.250 Y53.800 E0.17245
G1 X88.250 Y86.200 E1.92701
G1 X86.200 Y88.250 E0.17245
G1 X53.800 Y88.250 E1.92701
G1 X51.750 Y86.200 E0.17245
G1 X51.750 Y53.875 E1.92255
G1 X51.750 Y53.800 E0.00446
G1 X52.250 Y54.007 F15000.000
G1 X54.007 Y52.250 F720.000 E0.14782
G1 X85.993 Y52.250 E1.90238
G1 X87.750 Y54.007 E0.14782
G1 X87.750 Y85.993 E1.90238
G1 X85.993 Y87.750 E0.14782
G1 X54.007 Y87.750 E1.90238
G1 X52.250 Y85.993 E0.14782
G1 X52.250 Y54.082 E1.89791
G1 X52.250 Y54.007 E0.00446
G1 X52.750 Y54.214 F15000.000
G1 X54.214 Y52.750 F720.000 E0.12318
G1 X85.786 Y52.750 E1.87774
G1 X87.250 Y54.214 E0.12318
G1 X87.250 Y85.786 E1.87774
G1 X85.786 Y87.250 E0.12318
G1 X54.214 Y87.250 E1.87774
G1 X52.750 Y85.786 E0.12318
G1 X52.750 Y54.289 E1.87328
G1 X52.750 Y54.214 E0.00446
G1 X53.250 Y54.422 F15000.000
G1 X54.422 Y53.250 F720.000 E0.09854
G1 X85.578 Y53.250 E1.85310
G1 X86.750 Y54.422 E0.09854
G1 X86.750 Y85.578 E1.85310
G1 X85.578 Y86.750 E0.09854
G1 X54.422 Y86.750 E1.85310
G1 X53.250 Y85.578 E0.09854
G1 X53.250 Y54.497 E1.84864
G1 X53.250 Y54.422 E0.00446
G1 X53.750 Y54.629 F15000.000
G1 X54.629 Y53.750 F720.000 E0.07391
G1 X85.371 Y53.750 E1.82847
G1 X86.250 Y54.629 E0.07391
G1 X86.250 Y85.371 E1.82847
G1 X85.371 Y86.250 E0.07391
G1 X54.629 Y86.250 E1.82847
G1 X53.750 Y85.371 E0.07391
G1 X53.750 Y54.704 E1.82401
G1 X53.750 Y54.629 E0.00446
G1 X54.250 Y54.836 F15000.000
G1 X54.836 Y54.250 F720.000 E0.04927
G1 X85.164 Y54.250 E1.80383
G1 X85.750 Y54.836 E0.04927
G1 X85.750 Y85.164 E1.80383
G1 X85.164 Y85.750 E0.04927
G1 X54.836 Y85.750 E1.80383
G1 X54.250 Y85.164 E0.04927
G1 X54.250 Y54.911 E1.79937
G1 X54.250 Y54.836 E0.00446
G1 X54.750 Y55.043 F15000.000
G1 X55.043 Y54.750 F720.000 E0.02464
G1 X84.957 Y54.750 E1.77920
G1 X85.250 Y55.043 E0.02464
G1 X85.250 Y84.957 E1.77920
G1 X84.957 Y85.250 E0.02464
G1 X55.043 Y85.250 E1.77920
G1 X54.750 Y84.957 E0.02464
G1 X54.750 Y55.118 E1.77473
G1 X54.750 Y55.043 E0.00446
G1 F2220.000 E-1.60000
G1 X55.250 Y55.250 F15000.000
G1 F2220.000 E1.60000
G1 X84.750 Y55.250 F576.000 E1.75456
G1 X84.750 Y84.750 E1.75456
G1 X55.250 Y84.750 E1.75456
G1 X55.250 Y55.325 E1.75010
G1 X55.250 Y55.250 E0.00446
G1 X55.500 Y54.817 F15000.000
G1 F2220.000 E-1.60000
G1 X55.750 Y84.250 F15000.000
G1 F2220.000 E1.60000
G1 X55.750 Y55.750 F720.000 E1.69508
G1 X84.250 Y55.750 E1.69508
G1 X84.250 Y84.250 E1.69508
G1 X55.825 Y84.250 E1.69062
G1 X55.750 Y84.250 E0.00446
G1 X56.409 Y83.909 F15000.000
G1 X56.091 Y83.591 F1152.000 E0.02705
G1 X56.091 Y82.877 E0.04291
G1 X57.123 Y83.909 E0.08774
G1 X57.838 Y83.909 E0.04292
G1 X56.091 Y82.162 E0.14843
G1 X56.091 Y81.448 E0.04292
G1 X58.552 Y83.909 E0.20912
G1 X59.266 Y83.909 E0.04292
G1 X56.091 Y80.734 E0.26982
G1 X56.091 Y80.019 E0.04292
G1 X59.981 Y83.909 E0.33051
G1 X60.695 Y83.909 E0.04291
G1 X56.091 Y79.305 E0.39120
G1 X56.091 Y78.591 E0.04292
G1 X61.409 Y83.909 E0.45188
G1 X62.123 Y83.909 E0.04292
G1 X56.091 Y77.876 E0.51258
G1 X56.091 Y77.162 E0.04292
G1 X62.838 Y83.909 E0.57327
G1 X63.552 Y83.909 E0.04291
G1 X56.091 Y76.448 E0.63396
G1 X56.091 Y75.734 E0.04292
G1 X64.266 Y83.909 E0.69465
G1 X64.981 Y83.909 E0.04291
G1 X56.091 Y75.019 E0.75534
G1 X56.091 Y74.305 E0.04292
G1 X65.695 Y83.909 E0.81603
G1 X66.409 Y83.909 E0.04291
G1 X56.091 Y73.591 E0.87672
G1 X56.091 Y72.877 E0.04292
G1 X67.123 Y83.909 E0.93741
G1 X67.838 Y83.909 E0.04291
G1 X56.091 Y72.162 E0.99810
G1 X56.091 Y71.448 E0.04292
G1 X68.552 Y83.909 E1.05879
G1 X69.266 Y83.909 E0.04292
G1 X56.091 Y70.734 E1.11949
G1 X56.091 Y70.019 E0.04291
G1 X69.981 Y83.909 E1.18017
G1 X70.695 Y83.909 E0.04291
G1 X56.091 Y69.305 E1.24086
G1 X56.091 Y68.591 E0.04292
G1 X71.409 Y83.909 E1.30155
G1 X72.124 Y83.909 E0.04292
G1 X56.091 Y67.876 E1.36225
G1 X56.091 Y67.162 E0.04291
G1 X72.838 Y83.909 E1.42293
G1 X73.552 Y83.909 E0.04292
G1 X56.091 Y66.448 E1.48363
G1 X56.091 Y65.734 E0.04292
G1 X74.266 Y83.909 E1.54431
G1 X74.981 Y83.909 E0.04292
G1 X56.091 Y65.019 E1.60501
G1 X56.091 Y64.305 E0.04291
G1 X75.695 Y83.909 E1.66570
G1 X76.409 Y83.909 E0.04292
G1 X56.091 Y63.591 E1.72639
G1 X56.091 Y62.876 E0.04292
G1 X77.123 Y83.909 E1.78708
G1 X77.838 Y83.909 E0.04292
G1 X56.091 Y62.162 E1.84777
G1 X56.091 Y61.448 E0.04291
G1 X78.552 Y83.909 E1.90846
G1 X79.266 Y83.909 E0.04292
G1 X56.091 Y60.734 E1.96915
G1 X56.091 Y60.019 E0.04292
G1 X79.981 Y83.909 E2.02984
G1 X80.695 Y83.909 E0.04292
G1 X56.091 Y59.305 E2.09053
G1 X56.091 Y58.591 E0.04292
G1 X81.409 Y83.909 E2.15122
G1 X82.123 Y83.909 E0.04291
G1 X56.091 Y57.877 E2.21191
G1 X56.091 Y57.162 E0.04292
G1 X82.838 Y83.909 E2.27260
G1 X83.552 Y83.909 E0.04292
G1 X56.091 Y56.448 E2.33329
G1 X56.448 Y56.091 E0.03035
G1 X83.909 Y83.552 E2.33329
G1 X83.909 Y82.838 E0.04291
G1 X57.162 Y56.091 E2.27260
G1 X57.877 Y56.091 E0.04292
G1 X83.909 Y82.124 E2.21191
G1 X83.909 Y81.409 E0.04292
G1 X58.591 Y56.091 E2.15122
G1 X59.305 Y56.091 E0.04292
G1 X83.909 Y80.695 E2.09053
G1 X83.909 Y79.981 E0.04291
G1 X60.019 Y56.091 E2.02984
G1 X60.734 Y56.091 E0.04292
G1 X83.909 Y79.266 E1.96915
G1 X83.909 Y78.552 E0.04292
G1 X61.448 Y56.091 E1.90846
G1 X62.162 Y56.091 E0.04291
G1 X83.909 Y77.838 E1.84777
G1 X83.909 Y77.123 E0.04292
G1 X62.877 Y56.091 E1.78708
G1 X63.591 Y56.091 E0.04291
G1 X83.909 Y76.409 E1.72639
G1 X83.909 Y75.695 E0.04292
G1 X64.305 Y56.091 E1.66570
G1 X65.019 Y56.091 E0.04291
G1 X83.909 Y74.981 E1.60501
G1 X83.909 Y74.266 E0.04292
G1 X65.734 Y56.091 E1.54431
G1 X66.448 Y56.091 E0.04291
G1 X83.909 Y73.552 E1.48363
G1 X83.909 Y72.838 E0.04292
G1 X67.162 Y56.091 E1.42293
G1 X67.876 Y56.091 E0.04291
G1 X83.909 Y72.123 E1.36225
G1 X83.909 Y71.409 E0.04292
G1 X68.591 Y56.091 E1.30155
G1 X69.305 Y56.091 E0.04291
G1 X83.909 Y70.695 E1.24086
G1 X83.909 Y69.981 E0.04291
G1 X70.019 Y56.091 E1.18017
G1 X70.734 Y56.091 E0.04291
G1 X83.909 Y69.266 E1.11949
G1 X83.909 Y68.552 E0.04292
G1 X71.448 Y56.091 E1.05879
G1 X72.162 Y56.091 E0.04291
G1 X83.909 Y67.838 E0.99810
G1 X83.909 Y67.124 E0.04291
G1 X72.877 Y56.091 E0.93741
G1 X73.591 Y56.091 E0.04292
G1 X83.909 Y66.409 E0.87672
G1 X83.909 Y65.695 E0.04292
G1 X74.305 Y56.091 E0.81603
G1 X75.019 Y56.091 E0.04292
G1 X83.909 Y64.981 E0.75534
G1 X83.909 Y64.266 E0.04291
G1 X75.734 Y56.091 E0.69465
G1 X76.448 Y56.091 E0.04292
G1 X83.909 Y63.552 E0.63396
G1 X83.909 Y62.838 E0.04292
G1 X77.162 Y56.091 E0.57327
G1 X77.877 Y56.091 E0.04292
G1 X83.909 Y62.123 E0.51258
G1 X83.909 Y61.409 E0.04291
G1 X78.591 Y56.091 E0.45188
G1 X79.305 Y56.091 E0.04292
G1 X83.909 Y60.695 E0.39120
G1 X83.909 Y59.981 E0.04292
G1 X80.019 Y56.091 E0.33051
G1 X80.734 Y56.091 E0.04292
G1 X83.909 Y59.266 E0.26982
G1 X83.909 Y58.552 E0.04291
G1 X81.448 Y56.091 E0.20912
G1 X82.162 Y56.091 E0.04292
G1 X83.909 Y57.838 E0.14843
G1 X83.909 Y57.123 E0.04292
G1 X82.877 Y56.091 E0.08774
G1 X83.591 Y56.091 E0.04291
G1 X83.909 Y56.409 E0.02705
G1 F2220.000 E-1.60000
G1 Z0.450 F15000.000
G1 X84.250 Y55.750
G1 F2220.000 E1.60000
G1 X84.250 Y84.250 F1800.000 E0.84754
G1 X55.750 Y84.250 E0.84754
G1 X55.750 Y55.750 E0.84754
G1 X84.175 Y55.750 E0.84531
G1 X84.250 Y55.750 E0.00223
G1 X84.750 Y55.250 F15000.000
G1 X84.750 Y84.750 F1440.000 E0.87728
G1 X55.250 Y84.750 E0.87728
G1 X55.250 Y55.250 E0.87728
G1 X84.675 Y55.250 E0.87505
G1 X84.750 Y55.250 E0.00223
G1 X85.187 Y55.503 F15000.000
G1 F2220.000 E-1.60000
G1 X83.909 Y83.591 F15000.000
G1 F2220.000 E1.60000
G1 X83.591 Y83.909 F2880.000 E0.01353
G1 X82.877 Y83.909 E0.02146
G1 X83.909 Y82.877 E0.04387
G1 X83.909 Y82.162 E0.02146
G1 X82.162 Y83.909 E0.07422
G1 X81.448 Y83.909 E0.02146
G1 X83.909 Y81.448 E0.10456
G1 X83.909 Y80.734 E0.02146
G1 X80.734 Y83.909 E0.13491
G1 X80.019 Y83.909 E0.02146
G1 X83.909 Y80.019 E0.16525
G1 X83.909 Y79.305 E0.02146
G1 X79.305 Y83.909 E0.19560
G1 X78.591 Y83.909 E0.02146
G1 X83.909 Y78.591 E0.22594
G1 X83.909 Y77.876 E0.02146
G1 X77.877 Y83.909 E0.25629
G1 X77.162 Y83.909 E0.02146
G1 X83.909 Y77.162 E0.28664
G1 X83.909 Y76.448 E0.02146
G1 X76.448 Y83.909 E0.31698
G1 X75.734 Y83.909 E0.02146
G1 X83.909 Y75.734 E0.34732
G1 X83.909 Y75.019 E0.02146
G1 X75.019 Y83.909 E0.37767
G1 X74.305 Y83.909 E0.02146
G1 X83.909 Y74.305 E0.40802
G1 X83.909 Y73.591 E0.02146
G1 X73.591 Y83.909 E0.43836
G1 X72.876 Y83.909 E0.02146
G1 X83.909 Y72.877 E0.46871
G1 X83.909 Y72.162 E0.02146
G1 X72.162 Y83.909 E0.49905
G1 X71.448 Y83.909 E0.02146
G1 X83.909 Y71.448 E0.52940
G1 X83.909 Y70.734 E0.02146
G1 X70.734 Y83.909 E0.55974
G1 X70.019 Y83.909 E0.02146
G1 X83.909 Y70.019 E0.59009
G1 X83.909 Y69.305 E0.02146
G1 X69.305 Y83.909 E0.62043
G1 X68.591 Y83.909 E0.02146
G1 X83.909 Y68.591 E0.65078
G1 X83.909 Y67.877 E0.02146
G1 X67.877 Y83.909 E0.68112
G1 X67.162 Y83.909 E0.02146
G1 X83.909 Y67.162 E0.71147
G1 X83.909 Y66.448 E0.02146
G1 X66.448 Y83.909 E0.74181
G1 X65.734 Y83.909 E0.02146
G1 X83.909 Y65.734 E0.77216
G1 X83.909 Y65.019 E0.02146
G1 X65.019 Y83.909 E0.80250
G1 X64.305 Y83.909 E0.02146
G1 X83.909 Y64.305 E0.83285
G1 X83.909 Y63.591 E0.02146
G1 X63.591 Y83.909 E0.86319
G1 X62.877 Y83.909 E0.02146
G1 X83.909 Y62.876 E0.89354
G1 X83.909 Y62.162 E0.02146
G1 X62.162 Y83.909 E0.92389
G1 X61.448 Y83.909 E0.02146
G1 X83.909 Y61.448 E0.95423
G1 X83.909 Y60.734 E0.02146
G1 X60.734 Y83.909 E0.98458
G1 X60.019 Y83.909 E0.02146
G1 X83.909 Y60.019 E1.01492
G1 X83.909 Y59.305 E0.02146
G1 X59.305 Y83.909 E1.04527
G1 X58.591 Y83.909 E0.02146
G1 X83.909 Y58.591 E1.07561
G1 X83.909 Y57.876 E0.02146
G1 X57.877 Y83.909 E1.10596
G1 X57.162 Y83.909 E0.02146
G1 X83.909 Y57.162 E1.13630
G1 X83.909 Y56.448 E0.02146
G1 X56.448 Y83.909 E1.16665
G1 X56.091 Y83.552 E0.01517
G1 X83.552 Y56.091 E1.16665
G1 X82.838 Y56.091 E0.02146
G1 X56.091 Y82.838 E1.13630
G1 X56.091 Y82.124 E0.02146
G1 X82.124 Y56.091 E1.10596
G1 X81.409 Y56.091 E0.02146
G1 X56.091 Y81.409 E1.07561
G1 X56.091 Y80.695 E0.02146
G1 X80.695 Y56.091 E1.04527
G1 X79.981 Y56.091 E0.02146
G1 X56.091 Y79.981 E1.01492
G1 X56.091 Y79.266 E0.02146
G1 X79.266 Y56.091 E0.98458
G1 X78.552 Y56.091 E0.02146
G1 X56.091 Y78.552 E0.95423
G1 X56.091 Y77.838 E0.02146
G1 X77.838 Y56.091 E0.92389
G1 X77.124 Y56.091 E0.02146
G1 X56.091 Y77.123 E0.89354
G1 X56.091 Y76.409 E0.02146
G1 X76.409 Y56.091 E0.86319
G1 X75.695 Y56.091 E0.02146
G1 X56.091 Y75.695 E0.83285
G1 X56.091 Y74.981 E0.02146
G1 X74.981 Y56.091 E0.80250
G1 X74.266 Y56.091 E0.02146
G1 X56.091 Y74.266 E0.77216
G1 X56.091 Y73.552 E0.02146
G1 X73.552 Y56.091 E0.74181
G1 X72.838 Y56.091 E0.02146
G1 X56.091 Y72.838 E0.71147
G1 X56.091 Y72.123 E0.02146
G1 X72.123 Y56.091 E0.68112
G1 X71.409 Y56.091 E0.02146
G1 X56.091 Y71.409 E0.65078
G1 X56.091 Y70.695 E0.02146
G1 X70.695 Y56.091 E0.62043
G1 X69.981 Y56.091 E0.02146
G1 X56.091 Y69.981 E0.59009
G1 X56.091 Y69.266 E0.02146
G1 X69.266 Y56.091 E0.55974
G1 X68.552 Y56.091 E0.02146
G1 X56.091 Y68.552 E0.52940
G1 X56.091 Y67.838 E0.02146
G1 X67.838 Y56.091 E0.49905
G1 X67.123 Y56.091 E0.02146
G1 X56.091 Y67.124 E0.46871
G1 X56.091 Y66.409 E0.02146
G1 X66.409 Y56.091 E0.43836
G1 X65.695 Y56.091 E0.02146
G1 X56.091 Y65.695 E0.40802
G1 X56.091 Y64.981 E0.02146
G1 X64.981 Y56.091 E0.37767
G1 X64.266 Y56.091 E0.02146
G1 X56.091 Y64.266 E0.34732
G1 X56.091 Y63.552 E0.02146
G1 X63.552 Y56.091 E0.31698
G1 X62.838 Y56.091 E0.02146
G1 X56.091 Y62.838 E0.28664
G1 X56.091 Y62.123 E0.02146
G1 X62.123 Y56.091 E0.25629
G1 X61.409 Y56.091 E0.02146
G1 X56.091 Y61.409 E0.22594
G1 X56.091 Y60.695 E0.02146
G1 X60.695 Y56.091 E0.19560
G1 X59.981 Y56.091 E0.02146
G1 X56.091 Y59.981 E0.16525
G1 X56.091 Y59.266 E0.02146
G1 X59.266 Y56.091 E0.13491
G1 X58.552 Y56.091 E0.02146
G1 X56.091 Y58.552 E0.10456
G1 X56.091 Y57.838 E0.02146
G1 X57.838 Y56.091 E0.07422
G1 X57.123 Y56.091 E0.02146
G1 X56.091 Y57.123 E0.04387
G1 X56.091 Y56.409 E0.02146
G1 X56.409 Y56.091 E0.01353
G1 F2220.000 E-1.60000
G1 Z0.600 F15000.000
G1 X84.250 Y84.250
G1 F2220.000 E1.60000
G1 X55.750 Y84.250 F627.600 E0.84754
G1 X55.750 Y55.750 E0.84754
G1 X84.250 Y55.750 E0.84754
G1 X84.250 Y84.175 E0.84531
G1 X84.250 Y84.250 E0.00223
G1 X84.750 Y84.750 F15000.000
G1 X55.250 Y84.750 F600.000 E0.87728
G1 X55.250 Y55.250 E0.87728
G1 X84.750 Y55.250 E0.87728
G1 X84.750 Y84.675 E0.87505
G1 X84.750 Y84.750 E0.00223
G1 F2220.000 E-1.60000
G1 Z0.750 F15000.000
G1 X55.750 Y55.750
G1 F2220.000 E1.60000
G1 X84.250 Y55.750 F1170.326 E0.84754
G1 X84.250 Y84.250 E0.84754
G1 X55.750 Y84.250 E0.84754
G1 X55.750 Y55.825 E0.84531
G1 X55.750 Y55.750 E0.00223
G1 X55.250 Y55.250 F15000.000
G1 X84.750 Y55.250 F936.261 E0.87728
G1 X84.750 Y84.750 E0.87728
G1 X55.250 Y84.750 E0.87728
G1 X55.250 Y55.325 E0.87505
G1 X55.250 Y55.250 E0.00223
G1 X55.500 Y54.817 F15000.000
G1 F2220.000 E-1.60000
G1 X83.909 Y83.591 F15000.000
G1 F2220.000 E1.60000
G1 X83.591 Y83.909 F1872.522 E0.02678
G1 X80.055 Y83.909 E0.21028
G1 X83.909 Y80.055 E0.32417
G1 X83.909 Y76.520 E0.21028
G1 X76.520 Y83.909 E0.62155
G1 X72.984 Y83.909 E0.21028
G1 X83.909 Y72.984 E0.91893
G1 X83.909 Y69.449 E0.21028
G1 X69.449 Y83.909 E1.21631
G1 X65.913 Y83.909 E0.21028
G1 X83.909 Y65.913 E1.51370
G1 X83.909 Y62.378 E0.21028
G1 X62.378 Y83.909 E1.81108
G1 X58.842 Y83.909 E0.21028
G1 X83.909 Y58.842 E2.10846
G1 X83.125 Y56.091 E0.17016
G1 X56.091 Y83.125 E2.27392
G1 X56.091 Y79.589 E0.21028
G1 X79.589 Y56.091 E1.97653
G1 X76.054 Y56.091 E0.21028
G1 X56.091 Y76.054 E1.67915
G1 X56.091 Y72.518 E0.21028
G1 X72.518 Y56.091 E1.38177
G1 X68.983 Y56.091 E0.21028
G1 X56.091 Y68.983 E1.08438
G1 X56.091 Y65.447 E0.21028
G1 X65.447 Y56.091 E0.78700
G1 X61.912 Y56.091 E0.21028
G1 X56.091 Y61.912 E0.48962
G1 X56.091 Y58.376 E0.21028
G1 X58.376 Y56.091 E0.19223
M106 S255
G1 F2220.000 E-1.60000
G1 Z0.900 F15000.000
G1 X84.250 Y55.750
G1 F2220.000 E1.60000
G1 X84.250 Y84.250 F627.600 E0.84754
G1 X55.750 Y84.250 E0.84754
G1 X55.750 Y55.750 E0.84754
G1 X84.175 Y55.750 E0.84531
G1 X84.250 Y55.750 E0.00223
G1 X84.750 Y55.250 F15000.000
G1 X84.750 Y84.750 F600.000 E0.87728
G1 X55.250 Y84.750 E0.87728
G1 X55.250 Y55.250 E0.87728
G1 X84.675 Y55.250 E0.87505
G1 X84.750 Y55.250 E0.00223
G1 F2220.000 E-1.60000
G1 Z1.050 F15000.000
G1 X55.750 Y84.250
G1 F2220.000 E1.60000
G1 X55.750 Y55.750 F1170.326 E0.84754
G1 X84.250 Y55.750 E0.84754
G1 X84.250 Y84.250 E0.84754
G1 X55.825 Y84.250 E0.84531
G1 X55.750 Y84.250 E0.00223
G1 X55.250 Y84.750 F15000.000
G1 X55.250 Y55.250 F936.261 E0.87728
G1 X84.750 Y55.250 E0.87728
G1 X84.750 Y84.750 E0.87728
G1 X55.325 Y84.750 E0.87505
G1 X55.250 Y84.750 E0.00223
G1 X56.409 Y83.909 F15000.000
G1 X56.091 Y83.591 F1872.522 E0.02678
G1 X56.091 Y80.055 E0.21028
G1 X59.945 Y83.909 E0.32417
G1 X63.480 Y83.909 E0.21028
G1 X56.091 Y76.520 E0.62155
G1 X56.091 Y72.984 E0.21028
G1 X67.016 Y83.909 E0.91893
G1 X70.551 Y83.909 E0.21028
G1 X56.091 Y69.449 E1.21631
G1 X56.091 Y65.913 E0.21028
G1 X74.087 Y83.909 E1.51370
G1 X77.622 Y83.909 E0.21028
G1 X56.091 Y62.378 E1.81108
G1 X56.091 Y58.842 E0.21028
G1 X81.158 Y83.909 E2.10846
G1 X83.909 Y83.125 E0.17016
G1 X56.875 Y56.091 E2.27391
G1 X60.411 Y56.091 E0.21028
