; generated by Slic3r 0.9.7 on 2013-07-25 at 20:52:27

; layer_height = 0.15
; perimeters = 2
; top_solid_layers = 3
; bottom_solid_layers = 2
; fill_density = 0.4
; perimeter_speed = 30
; infill_speed = 30
; travel_speed = 250
; scale = 1
; nozzle_diameter = 0.5
; filament_diameter = 1.7
; extrusion_multiplier = 0.9
; perimeters extrusion width = 0.50mm
; infill extrusion width = 0.50mm
; support material extrusion width = 0.11mm
; first layer extrusion width = 0.50mm

M107
M190 S57 ; wait for bed temperature to be reached
M104 S200 ; set temperature
G1 Z0.15 F200
G1 X15 Y20 F12000
M109 S200 ; wait for temperature to be reached
G90 ; use absolute coordinates
G21 ; set units to millimeters
M83 ; use relative distances for extrusion
G1 F2220.000 E-1.60000
G1 Z0.300 F15000.000
G1 X39.291 Y50.511
G1 F2220.000 E1.60000
G1 X39.711 Y50.201 F720.000 E0.03105
G1 X39.951 Y50.051 E0.01683
G1 X40.701 Y49.661 E0.05028
G1 X46.441 Y47.111 E0.37357
G1 X47.031 Y46.881 E0.03766
G1 X47.641 Y46.711 E0.03766
G1 X48.271 Y46.601 E0.03804
G1 X53.811 Y45.901 E0.33212
G1 X54.391 Y45.851 E0.03462
G1 X55.271 Y45.881 E0.05237
G1 X56.771 Y46.031 E0.08966
G1 X57.471 Y46.141 E0.04214
G1 X57.941 Y46.261 E0.02885
G1 X62.101 Y47.471 E0.25768
G1 X63.121 Y47.861 E0.06495
G1 X106.541 Y68.981 E2.87177
G1 X107.241 Y69.381 E0.04795
G1 X107.891 Y69.861 E0.04806
G1 X108.091 Y70.031 E0.01561
G1 X108.471 Y70.411 E0.03196
G1 X108.981 Y71.031 E0.04775
G1 X109.271 Y71.481 E0.03184
G1 X109.531 Y71.951 E0.03195
G1 X109.841 Y72.691 E0.04772
G1 X109.991 Y73.201 E0.03162
G1 X110.151 Y73.991 E0.04794
G1 X110.201 Y74.791 E0.04767
G1 X110.231 Y80.221 E0.32296
G1 X110.151 Y81.041 E0.04900
G1 X110.101 Y81.301 E0.01575
G1 X110.041 Y81.571 E0.01645
G1 X109.791 Y82.351 E0.04872
G1 X109.451 Y83.091 E0.04844
G1 X109.171 Y83.551 E0.03203
G1 X108.681 Y84.211 E0.04889
G1 X108.311 Y84.601 E0.03197
G1 X107.911 Y84.971 E0.03241
G1 X107.481 Y85.301 E0.03224
G1 X107.251 Y85.451 E0.01633
G1 X105.621 Y86.501 E0.11532
G1 X105.041 Y86.841 E0.03999
G1 X102.011 Y88.371 E0.20189
G1 X101.441 Y88.591 E0.03634
G1 X100.551 Y88.831 E0.05483
G1 X93.971 Y89.771 E0.39533
G1 X53.631 Y94.261 E2.41410
G1 X53.061 Y94.271 E0.03391
G1 X52.491 Y94.231 E0.03399
G1 X51.921 Y94.141 E0.03432
G1 X51.371 Y94.011 E0.03361
G1 X41.231 Y90.541 E0.63743
G1 X40.951 Y90.441 E0.01768
G1 X40.411 Y90.191 E0.03539
G1 X39.891 Y89.901 E0.03541
G1 X39.641 Y89.731 E0.01798
G1 X39.401 Y89.561 E0.01749
G1 X38.941 Y89.181 E0.03549
G1 X34.281 Y84.491 E0.39323
G1 X33.871 Y84.041 E0.03621
G1 X33.501 Y83.551 E0.03652
G1 X33.051 Y82.761 E0.05407
G1 X30.041 Y75.791 E0.45156
G1 X29.741 Y74.931 E0.05417
G1 X29.561 Y74.041 E0.05401
G1 X29.511 Y73.441 E0.03581
G1 X29.331 Y68.041 E0.32135
G1 X29.341 Y67.411 E0.03747
G1 X29.411 Y66.781 E0.03770
G1 X29.541 Y66.161 E0.03768
G1 X29.631 Y65.861 E0.01863
G1 X32.341 Y58.511 E0.46592
G1 X32.571 Y57.981 E0.03436
G1 X32.841 Y57.481 E0.03380
G1 X33.151 Y56.991 E0.03449
G1 X33.501 Y56.541 E0.03391
G1 X38.571 Y51.131 E0.44098
G1 X38.921 Y50.801 E0.02861
G1 X39.232 Y50.557 E0.02350
G1 X39.291 Y50.511 E0.00446
G1 F2220.000 E-1.60000
G1 X35.089 Y57.590 F15000.000
G1 F2220.000 E1.60000
G1 X36.689 Y57.161 F720.000 E0.09854
G1 X39.251 Y58.640 E0.17592
G1 X40.903 Y57.686 E0.11347
G1 X40.903 Y52.415 E0.31352
G1 X42.075 Y51.243 E0.09854
G1 X42.135 Y51.243 E0.00360
G1 X42.270 Y51.108 E0.01136
G1 X44.427 Y51.108 E0.12828
G1 X44.798 Y51.479 E0.03122
G1 X45.725 Y49.874 E0.11024
G1 X47.325 Y49.445 E0.09854
G1 X51.251 Y51.712 E0.26960
G1 X51.751 Y51.423 E0.03436
G1 X51.689 Y51.189 E0.01440
G1 X52.767 Y49.321 E0.12828
G1 X54.367 Y48.892 E0.09854
G1 X55.251 Y49.402 E0.06068
G1 X56.384 Y48.748 E0.07782
G1 X57.984 Y49.177 E0.09854
G1 X59.063 Y51.045 E0.12828
G1 X58.933 Y51.528 E0.02977
G1 X59.251 Y51.712 E0.02181
G1 X62.040 Y50.101 E0.19158
G1 X63.641 Y50.530 E0.09854
G1 X64.719 Y52.398 E0.12828
G1 X64.290 Y53.998 E0.09854
G1 X62.038 Y55.299 E0.15470
G1 X63.315 Y56.133 E0.09072
G1 X64.574 Y57.141 E0.09594
G1 X65.051 Y57.601 E0.03938
G1 X68.893 Y55.382 E0.26391
G1 X70.494 Y55.811 E0.09854
G1 X71.572 Y57.679 E0.12828
G1 X71.143 Y59.279 E0.09854
G1 X67.917 Y61.142 E0.22159
G1 X68.739 Y62.674 E0.10340
G1 X69.405 Y64.325 E0.10585
G1 X72.248 Y62.683 E0.19530
G1 X73.849 Y63.112 E0.09854
G1 X74.927 Y64.980 E0.12828
G1 X74.498 Y66.580 E0.09854
G1 X70.336 Y68.983 E0.28585
G1 X70.382 Y69.694 E0.04237
G1 X70.334 Y71.306 E0.09593
G1 X70.259 Y71.924 E0.03699
G1 X71.251 Y72.496 E0.06813
G1 X73.961 Y70.932 E0.18612
G1 X75.254 Y71.278 E0.07958
G1 X76.543 Y70.933 E0.07939
G1 X79.251 Y72.496 E0.18596
G1 X81.049 Y71.458 E0.12353
G1 X81.563 Y70.567 E0.06116
G1 X83.164 Y70.138 E0.09854
G1 X87.251 Y72.496 E0.28068
G1 X89.955 Y70.935 E0.18569
G1 X91.254 Y71.283 E0.08001
G1 X92.549 Y70.936 E0.07969
G1 X95.251 Y72.496 E0.18557
G1 X97.952 Y70.937 E0.18552
G1 X99.553 Y71.366 E0.09854
G1 X100.631 Y73.234 E0.12828
G1 X100.467 Y73.844 E0.03759
G1 X100.903 Y73.844 E0.02591
G1 X100.903 Y71.883 E0.11661
G1 X102.075 Y70.712 E0.09854
G1 X104.231 Y70.712 E0.12828
G1 X105.004 Y71.484 E0.06497
G1 X105.463 Y71.219 E0.03150
G1 X107.063 Y71.648 E0.09854
G1 X108.141 Y73.516 E0.12828
G1 X107.712 Y75.117 E0.09854
G1 X105.599 Y76.337 E0.14517
G1 X105.599 Y78.471 E0.12691
G1 X107.743 Y79.709 E0.14727
G1 X108.172 Y81.309 E0.09854
G1 X107.093 Y83.177 E0.12828
G1 X105.493 Y83.606 E0.09854
G1 X103.520 Y82.467 E0.13549
G1 X103.340 Y82.632 E0.01453
G1 X103.063 Y82.813 E0.01971
G1 X102.600 Y83.016 E0.03006
G1 X102.362 Y83.087 E0.01477
G1 X102.032 Y83.142 E0.01988
G1 X101.788 Y83.156 E0.01453
G1 X101.599 Y83.265 E0.01301
G1 X101.599 Y85.778 E0.14944
G1 X100.427 Y86.950 E0.09854
G1 X98.075 Y86.950 E0.13992
G1 X96.903 Y85.778 E0.09854
G1 X96.903 Y83.265 E0.14946
G1 X96.714 Y83.156 E0.01299
G1 X95.315 Y83.156 E0.08321
G1 X95.341 Y86.643 E0.20742
G1 X94.178 Y87.823 E0.09854
G1 X92.456 Y87.836 E0.10242
G1 X92.427 Y87.865 E0.00240
G1 X92.231 Y87.868 E0.01164
G1 X90.075 Y87.868 E0.12828
G1 X88.903 Y86.697 E0.09854
G1 X88.903 Y83.265 E0.20411
G1 X88.714 Y83.156 E0.01298
G1 X87.556 Y83.156 E0.06890
G1 X87.589 Y83.282 E0.00777
G1 X86.511 Y85.150 E0.12828
G1 X85.599 Y85.395 E0.05617
G1 X85.599 Y86.737 E0.07986
G1 X84.427 Y87.909 E0.09854
G1 X82.270 Y87.909 E0.12828
G1 X81.099 Y86.737 E0.09854
G1 X81.099 Y83.378 E0.19979
G1 X80.714 Y83.156 E0.02642
G1 X77.788 Y83.156 E0.17403
G1 X77.599 Y83.265 E0.01300
G1 X77.599 Y85.783 E0.14972
G1 X76.427 Y86.954 E0.09854
G1 X74.075 Y86.954 E0.13992
G1 X72.903 Y85.783 E0.09854
G1 X72.903 Y83.265 E0.14972
G1 X72.714 Y83.156 E0.01300
G1 X69.788 Y83.156 E0.17401
G1 X69.599 Y83.265 E0.01300
G1 X69.599 Y85.784 E0.14981
G1 X68.427 Y86.956 E0.09854
G1 X66.075 Y86.956 E0.13992
G1 X64.903 Y85.784 E0.09854
G1 X64.903 Y83.265 E0.14982
G1 X64.714 Y83.156 E0.01299
G1 X64.277 Y83.156 E0.02598
G1 X62.402 Y84.487 E0.13677
G1 X61.599 Y84.931 E0.05459
G1 X61.599 Y89.916 E0.29649
G1 X60.427 Y91.088 E0.09854
G1 X60.304 Y91.088 E0.00734
G1 X60.231 Y91.160 E0.00607
G1 X58.075 Y91.160 E0.12828
G1 X57.043 Y90.129 E0.08675
G1 X56.566 Y90.955 E0.05676
G1 X54.966 Y91.384 E0.09854
G1 X53.114 Y90.315 E0.12716
G1 X52.231 Y91.198 E0.07425
G1 X50.075 Y91.198 E0.12828
G1 X48.903 Y90.026 E0.09854
G1 X48.903 Y86.598 E0.20388
G1 X48.608 Y86.499 E0.01853
G1 X45.599 Y85.849 E0.18309
G1 X45.599 Y87.723 E0.11141
G1 X44.427 Y88.894 E0.09854
G1 X42.270 Y88.894 E0.12828
G1 X41.099 Y87.723 E0.09854
G1 X41.099 Y83.378 E0.25840
G1 X39.251 Y82.311 E0.12691
G1 X37.143 Y83.528 E0.14475
G1 X35.543 Y83.099 E0.09854
G1 X34.464 Y81.231 E0.12828
G1 X34.893 Y79.631 E0.09854
G1 X36.903 Y78.471 E0.13802
G1 X36.903 Y76.337 E0.12690
G1 X32.007 Y73.510 E0.33628
G1 X31.578 Y71.910 E0.09854
G1 X32.285 Y70.684 E0.08414
G1 X31.397 Y69.146 E0.10565
G1 X31.826 Y67.546 E0.09854
G1 X36.701 Y64.731 E0.33485
G1 X36.822 Y63.849 E0.05292
G1 X36.903 Y63.788 E0.00602
G1 X36.903 Y62.481 E0.07776
G1 X34.439 Y61.058 E0.16920
G1 X34.010 Y59.458 E0.09854
G1 X35.051 Y57.655 E0.12382
G1 X35.089 Y57.590 E0.00446
G1 F2220.000 E-1.60000
G1 X56.137 Y86.864 F15000.000
G1 F2220.000 E1.60000
G1 X56.903 Y86.740 F720.000 E0.04618
G1 X56.903 Y87.306 E0.03369
G1 X56.202 Y86.901 E0.04817
G1 X56.137 Y86.864 E0.00446
G1 F2220.000 E-1.60000
G1 X55.437 Y82.419 F15000.000
G1 F2220.000 E1.60000
G1 X54.936 Y82.493 F720.000 E0.03012
G1 X55.251 Y82.311 E0.02163
G1 X55.372 Y82.381 E0.00831
G1 X55.437 Y82.419 E0.00446
G1 F2220.000 E-1.60000
G1 X58.714 Y79.115 F15000.000
G1 F2220.000 E1.60000
G1 X58.763 Y78.930 F720.000 E0.01134
G1 X57.685 Y77.063 E0.12828
G1 X56.085 Y76.634 E0.09854
G1 X55.251 Y77.115 E0.05727
G1 X54.357 Y76.599 E0.06137
G1 X52.757 Y77.028 E0.09854
G1 X51.678 Y78.896 E0.12828
G1 X51.744 Y79.140 E0.01502
G1 X51.251 Y79.425 E0.03385
G1 X50.853 Y79.195 E0.02731
G1 X50.953 Y78.821 E0.02303
G1 X49.875 Y76.953 E0.12828
G1 X48.275 Y76.524 E0.09854
G1 X47.251 Y77.115 E0.07031
G1 X46.278 Y76.554 E0.06679
G1 X44.678 Y76.983 E0.09854
G1 X43.854 Y78.410 E0.09800
G1 X43.350 Y77.845 E0.04503
G1 X42.626 Y76.833 E0.07400
G1 X42.163 Y76.011 E0.05611
G1 X47.089 Y73.167 E0.33829
G1 X47.518 Y71.567 E0.09854
G1 X46.888 Y70.476 E0.07494
G1 X47.518 Y69.384 E0.07494
G1 X47.089 Y67.784 E0.09854
G1 X41.806 Y64.734 E0.36284
G1 X42.041 Y64.183 E0.03561
G1 X43.105 Y62.480 E0.11945
G1 X43.703 Y61.788 E0.05440
G1 X46.731 Y63.536 E0.20793
G1 X47.313 Y63.380 E0.03587
G1 X47.811 Y63.513 E0.03063
G1 X51.251 Y61.527 E0.23627
G1 X54.662 Y63.496 E0.23429
G1 X55.315 Y63.321 E0.04019
G1 X55.880 Y63.473 E0.03479
G1 X59.251 Y61.527 E0.23149
G1 X61.099 Y62.593 E0.12690
G1 X61.099 Y66.594 E0.23791
G1 X61.635 Y67.522 E0.06375
G1 X64.903 Y69.409 E0.22447
G1 X64.903 Y71.542 E0.12690
G1 X59.355 Y74.745 E0.38101
G1 X58.926 Y76.346 E0.09854
G1 X59.571 Y77.463 E0.07673
G1 X58.978 Y78.492 E0.07064
G1 X59.223 Y79.409 E0.05646
G1 X58.779 Y79.152 E0.03051
G1 X58.714 Y79.115 E0.00446
G1 F2220.000 E-1.60000
G1 X42.751 Y70.476 F15000.000
G1 F2220.000 E1.60000
G1 X40.731 Y71.642 F720.000 E0.13869
G1 X40.620 Y70.264 E0.08221
G1 X40.649 Y69.262 E0.05960
G1 X42.686 Y70.438 E0.13988
G1 X42.751 Y70.476 E0.00446
G1 F2220.000 E-1.60000
G1 X35.847 Y70.531 F15000.000
G1 F2220.000 E1.60000
G1 X35.751 Y70.476 F720.000 E0.00658
G1 X35.797 Y70.449 E0.00319
G1 X35.808 Y70.467 E0.00124
G1 X35.847 Y70.531 E0.00446
G1 F2220.000 E-1.60000
G1 X53.599 Y57.686 F15000.000
G1 F2220.000 E1.60000
G1 X53.599 Y57.400 F720.000 E0.01702
G1 X54.200 Y57.405 E0.03576
G1 X55.766 Y57.621 E0.09402
G1 X56.625 Y57.847 E0.05282
G1 X55.251 Y58.640 E0.09434
G1 X53.664 Y57.724 E0.10901
G1 X53.599 Y57.686 E0.00446
G1 F2220.000 E-1.60000
G1 X46.476 Y54.151 F15000.000
G1 F2220.000 E1.60000
G1 X46.292 Y54.385 F720.000 E0.01772
G1 X45.599 Y54.685 E0.04492
G1 X45.599 Y53.645 E0.06190
G1 X46.411 Y54.113 E0.05576
G1 X46.476 Y54.151 E0.00446
G1 X46.607 Y54.794 F15000.000
G1 X47.224 Y54.006 F720.000 E0.05954
G1 X45.505 Y53.013 E0.11810
G1 X45.183 Y51.813 E0.07391
G1 X46.054 Y50.303 E0.10365
G1 X47.255 Y49.982 E0.07391
G1 X51.251 Y52.289 E0.27445
G1 X52.333 Y51.664 E0.07435
G1 X52.225 Y51.260 E0.02490
G1 X53.096 Y49.750 E0.10365
G1 X54.297 Y49.429 E0.07391
G1 X55.251 Y49.980 E0.06553
G1 X56.455 Y49.285 E0.08267
G1 X57.655 Y49.606 E0.07391
G1 X58.526 Y51.116 E0.10365
G1 X58.351 Y51.770 E0.04027
G1 X59.251 Y52.289 E0.06180
G1 X62.111 Y50.638 E0.19644
G1 X63.311 Y50.959 E0.07391
G1 X64.183 Y52.469 E0.10365
G1 X63.861 Y53.669 E0.07391
G1 X61.345 Y55.121 E0.17276
G1 X61.651 Y55.644 E0.03599
G1 X63.012 Y56.531 E0.09666
G1 X64.252 Y57.523 E0.09445
G1 X64.972 Y58.224 E0.05973
G1 X68.964 Y55.919 E0.27418
G1 X70.164 Y56.240 E0.07391
G1 X71.036 Y57.750 E0.10365
G1 X70.714 Y58.950 E0.07391
G1 X67.205 Y60.976 E0.24096
G1 X67.486 Y61.396 E0.03005
G1 X68.280 Y62.874 E0.09983
G1 X69.019 Y64.704 E0.11737
G1 X69.124 Y65.064 E0.02230
G1 X72.319 Y63.219 E0.21946
G1 X73.519 Y63.541 E0.07391
G1 X74.391 Y65.050 E0.10365
G1 X74.069 Y66.251 E0.07391
G1 X69.815 Y68.706 E0.29213
G1 X69.881 Y69.692 E0.05874
G1 X69.835 Y71.279 E0.09444
G1 X69.720 Y72.190 E0.05460
G1 X71.251 Y73.074 E0.10513
G1 X74.032 Y71.468 E0.19097
G1 X75.232 Y71.790 E0.07391
G1 X75.252 Y71.825 E0.00241
G1 X75.272 Y71.791 E0.00235
G1 X76.472 Y71.469 E0.07391
G1 X79.251 Y73.074 E0.19082
G1 X81.416 Y71.824 E0.14867
G1 X81.893 Y70.996 E0.05681
G1 X83.093 Y70.674 E0.07391
G1 X87.251 Y73.073 E0.28552
G1 X90.026 Y71.472 E0.19054
G1 X91.226 Y71.793 E0.07391
G1 X91.252 Y71.839 E0.00313
G1 X91.278 Y71.795 E0.00303
G1 X92.478 Y71.473 E0.07391
G1 X95.251 Y73.074 E0.19042
G1 X98.023 Y71.473 E0.19037
G1 X99.223 Y71.795 E0.07391
G1 X100.094 Y73.304 E0.10365
G1 X99.816 Y74.344 E0.06403
G1 X101.403 Y74.344 E0.09440
G1 X101.403 Y72.090 E0.13403
G1 X102.282 Y71.212 E0.07391
G1 X104.024 Y71.212 E0.10365
G1 X104.903 Y72.090 E0.07391
G1 X104.903 Y72.120 E0.00174
G1 X105.533 Y71.756 E0.04327
G1 X106.733 Y72.078 E0.07391
G1 X107.605 Y73.587 E0.10365
G1 X107.283 Y74.787 E0.07391
G1 X105.099 Y76.048 E0.15002
G1 X105.099 Y78.759 E0.16125
G1 X107.313 Y80.038 E0.15212
G1 X107.635 Y81.239 E0.07391
G1 X106.764 Y82.748 E0.10365
G1 X105.563 Y83.069 E0.07391
G1 X103.437 Y81.841 E0.14606
G1 X103.351 Y81.943 E0.00792
G1 X103.032 Y82.236 E0.02576
G1 X102.824 Y82.372 E0.01478
G1 X102.427 Y82.546 E0.02575
G1 X102.249 Y82.599 E0.01108
G1 X101.970 Y82.646 E0.01680
G1 X101.654 Y82.656 E0.01881
G1 X101.099 Y82.977 E0.03815
G1 X101.099 Y85.571 E0.15430
G1 X100.220 Y86.450 E0.07391
G1 X98.282 Y86.450 E0.11528
G1 X97.403 Y85.571 E0.07391
G1 X97.403 Y82.976 E0.15431
G1 X96.848 Y82.656 E0.03813
G1 X94.811 Y82.656 E0.12113
G1 X94.839 Y86.440 E0.22506
G1 X93.967 Y87.325 E0.07391
G1 X92.247 Y87.338 E0.10229
G1 X92.220 Y87.365 E0.00228
G1 X92.024 Y87.368 E0.01164
G1 X90.282 Y87.368 E0.10365
G1 X89.403 Y86.490 E0.07391
G1 X89.403 Y82.976 E0.20896
G1 X88.848 Y82.656 E0.03812
G1 X86.904 Y82.656 E0.11563
G1 X87.053 Y83.212 E0.03421
G1 X86.181 Y84.721 E0.10365
G1 X85.099 Y85.011 E0.06667
G1 X85.099 Y86.530 E0.09036
G1 X84.220 Y87.409 E0.07391
G1 X82.477 Y87.409 E0.10365
G1 X81.599 Y86.530 E0.07391
G1 X81.599 Y83.089 E0.20464
G1 X80.848 Y82.656 E0.05155
G1 X77.654 Y82.656 E0.18997
G1 X77.099 Y82.977 E0.03814
G1 X77.099 Y85.576 E0.15458
G1 X76.220 Y86.454 E0.07391
G1 X74.282 Y86.454 E0.11528
G1 X73.403 Y85.576 E0.07391
G1 X73.403 Y82.977 E0.15458
G1 X72.848 Y82.656 E0.03814
G1 X69.654 Y82.656 E0.18995
G1 X69.099 Y82.977 E0.03814
G1 X69.099 Y85.577 E0.15467
G1 X68.220 Y86.456 E0.07391
G1 X66.282 Y86.456 E0.11528
G1 X65.403 Y85.577 E0.07391
G1 X65.403 Y82.977 E0.15467
G1 X64.848 Y82.656 E0.03813
G1 X64.118 Y82.656 E0.04343
G1 X62.124 Y84.070 E0.14536
G1 X61.099 Y84.634 E0.06961
G1 X61.099 Y89.709 E0.30186
G1 X60.220 Y90.588 E0.07391
G1 X60.097 Y90.588 E0.00734
G1 X60.024 Y90.660 E0.00607
G1 X58.282 Y90.660 E0.10365
G1 X57.403 Y89.781 E0.07391
G1 X57.403 Y86.081 E0.22009
G1 X56.677 Y86.278 E0.04476
G1 X54.639 Y86.577 E0.12250
G1 X56.786 Y87.816 E0.14748
G1 X57.108 Y89.017 E0.07391
G1 X56.237 Y90.526 E0.10365
G1 X55.036 Y90.848 E0.07391
G1 X52.903 Y89.616 E0.14651
G1 X52.903 Y89.819 E0.01209
G1 X52.024 Y90.698 E0.07391
G1 X50.282 Y90.698 E0.10365
G1 X49.403 Y89.819 E0.07391
G1 X49.403 Y86.239 E0.21292
G1 X48.741 Y86.016 E0.04157
G1 X45.786 Y85.378 E0.17978
G1 X45.483 Y84.908 E0.03329
G1 X45.099 Y85.011 E0.02365
G1 X45.099 Y87.516 E0.14897
G1 X44.220 Y88.394 E0.07391
G1 X42.477 Y88.394 E0.10365
G1 X41.599 Y87.516 E0.07391
G1 X41.599 Y83.089 E0.26325
G1 X39.251 Y81.734 E0.16125
G1 X37.072 Y82.991 E0.14960
G1 X35.872 Y82.670 E0.07391
G1 X35.001 Y81.160 E0.10365
G1 X35.323 Y79.960 E0.07391
G1 X37.403 Y78.759 E0.14287
G1 X37.403 Y76.048 E0.16124
G1 X32.436 Y73.180 E0.34113
G1 X32.114 Y71.980 E0.07391
G1 X32.905 Y70.611 E0.09401
G1 X32.805 Y70.585 E0.00615
G1 X31.933 Y69.075 E0.10365
G1 X32.255 Y67.875 E0.07391
G1 X37.164 Y65.041 E0.33710
G1 X37.290 Y64.122 E0.05516
G1 X37.403 Y64.036 E0.00847
G1 X37.403 Y62.192 E0.10970
G1 X34.869 Y60.729 E0.17405
G1 X34.547 Y59.528 E0.07391
G1 X35.418 Y58.019 E0.10365
G1 X36.619 Y57.698 E0.07391
G1 X39.251 Y59.217 E0.18077
G1 X41.403 Y57.975 E0.14781
G1 X41.403 Y52.622 E0.31837
G1 X42.282 Y51.743 E0.07391
