; generated by Slic3r 0.9.7 on 2013-07-20 at 12:45:46

; layer_height = 0.3
; perimeters = 2
; top_solid_layers = 3
; bottom_solid_layers = 2
; fill_density = 0.2
; perimeter_speed = 30
; infill_speed = 48
; travel_speed = 250
; scale = 1
; nozzle_diameter = 0.5
; filament_diameter = 1.7
; extrusion_multiplier = 0.9
; perimeters extrusion width = 0.50mm
; infill extrusion width = 0.50mm
; first layer extrusion width = 0.50mm

M107
M190 S57 ; wait for bed temperature to be reached
M104 S200 ; set temperature
G1 Z0.3 F200
G1 X15 Y20 F12000
M109 S200 ; wait for temperature to be reached
G90 ; use absolute coordinates
G21 ; set units to millimeters
M83 ; use relative distances for extrusion
G1 F2220.000 E-1.60000
G1 Z0.300 F15000.000
G1 X36.786 Y21.521
G1 F2220.000 E1.60000
G1 X37.249 Y20.578 F720.000 E0.06243
G1 X37.738 Y19.650 E0.06241
G1 X38.269 Y18.711 E0.06412
G1 X39.259 Y17.105 E0.11223
G1 X39.665 Y16.738 E0.03257
G1 X51.849 Y10.670 E0.80957
G1 X52.444 Y10.434 E0.03810
G1 X53.138 Y10.227 E0.04301
G1 X53.765 Y10.099 E0.03811
G1 X54.401 Y10.023 E0.03809
G1 X54.984 Y10.000 E0.03472
G1 X85.016 Y10.000 E1.78614
G1 X85.599 Y10.023 E0.03472
G1 X86.235 Y10.099 E0.03809
G1 X86.862 Y10.227 E0.03811
G1 X87.477 Y10.407 E0.03809
G1 X88.161 Y10.674 E0.04367
G1 X100.338 Y16.739 E0.80909
G1 X100.748 Y17.113 E0.03300
G1 X101.463 Y18.260 E0.08038
G1 X101.993 Y19.166 E0.06246
G1 X102.510 Y20.113 E0.06413
G1 X102.986 Y21.048 E0.06242
G1 X103.435 Y21.996 E0.06242
G1 X103.857 Y22.957 E0.06242
G1 X104.251 Y23.931 E0.06248
G1 X104.929 Y25.750 E0.11547
G1 X104.789 Y26.053 E0.01980
G1 X105.069 Y26.197 E0.01870
G1 X105.546 Y27.922 E0.10647
G1 X105.801 Y28.951 E0.06304
G1 X106.114 Y30.442 E0.09066
G1 X106.295 Y31.487 E0.06306
G1 X106.444 Y32.520 E0.06210
G1 X106.617 Y34.124 E0.09592
G1 X106.750 Y36.135 E0.11988
G1 X106.501 Y36.516 E0.02704
G1 X106.776 Y36.714 E0.02016
G1 X106.717 Y38.813 E0.12488
G1 X106.617 Y40.374 E0.09302
G1 X106.444 Y41.981 E0.09617
G1 X106.208 Y43.538 E0.09364
G1 X105.906 Y45.083 E0.09364
G1 X105.548 Y46.572 E0.09108
G1 X105.116 Y48.086 E0.09364
G1 X104.619 Y49.581 E0.09374
G1 X104.138 Y50.901 E0.08355
G1 X103.848 Y51.036 E0.01900
G1 X103.970 Y51.326 E0.01870
G1 X103.201 Y53.005 E0.10985
G1 X102.738 Y53.947 E0.06241
G1 X102.262 Y54.850 E0.06072
G1 X101.731 Y55.789 E0.06412
G1 X101.189 Y56.687 E0.06243
G1 X100.621 Y57.570 E0.06241
G1 X100.028 Y58.437 E0.06252
G1 X98.844 Y60.031 E0.11808
G1 X98.434 Y60.152 E0.02542
G1 X98.517 Y60.481 E0.02018
G1 X97.085 Y62.088 E0.12802
G1 X96.365 Y62.852 E0.06247
G1 X95.623 Y63.595 E0.06243
G1 X94.860 Y64.316 E0.06243
G1 X94.055 Y65.033 E0.06411
G1 X93.252 Y65.709 E0.06243
G1 X92.430 Y66.361 E0.06244
G1 X91.591 Y66.989 E0.06230
G1 X90.621 Y67.683 E0.07094
G1 X88.976 Y67.402 E0.09927
G1 X83.737 Y59.919 E0.54329
G1 X83.982 Y58.331 E0.09557
G1 X85.959 Y56.816 E0.14817
G1 X86.664 Y56.220 E0.05490
G1 X87.691 Y55.287 E0.08252
G1 X88.013 Y55.223 E0.01954
G1 X87.968 Y55.049 E0.01071
G1 X89.275 Y53.560 E0.11784
G1 X89.865 Y52.836 E0.05552
G1 X90.427 Y52.091 E0.05551
G1 X90.962 Y51.326 E0.05550
G1 X91.468 Y50.542 E0.05550
G1 X91.944 Y49.740 E0.05550
G1 X92.388 Y48.925 E0.05518
G1 X93.261 Y47.149 E0.11773
G1 X93.391 Y47.096 E0.00836
G1 X93.331 Y46.967 E0.00845
G1 X93.865 Y45.498 E0.09300
G1 X94.151 Y44.616 E0.05512
G1 X94.524 Y43.258 E0.08380
G1 X94.821 Y41.880 E0.08380
G1 X94.975 Y40.966 E0.05513
G1 X95.144 Y39.699 E0.07604
G1 X95.352 Y39.440 E0.01976
G1 X95.210 Y39.339 E0.01036
G1 X95.250 Y37.249 E0.12430
G1 X95.232 Y36.317 E0.05547
G1 X95.181 Y35.385 E0.05550
G1 X95.095 Y34.456 E0.05550
G1 X94.974 Y33.531 E0.05550
G1 X94.820 Y32.610 E0.05550
G1 X94.632 Y31.698 E0.05544
G1 X94.184 Y29.880 E0.11136
G1 X94.247 Y29.761 E0.00797
G1 X94.135 Y29.710 E0.00737
G1 X93.372 Y27.697 E0.12801
G1 X92.806 Y26.415 E0.08335
G1 X92.205 Y25.236 E0.07872
G1 X87.705 Y25.402 E0.26783
G1 X87.705 Y51.985 E1.58109
G1 X87.160 Y52.919 E0.06432
G1 X82.236 Y55.703 E0.33646
G1 X78.384 Y57.800 E0.26086
G1 X77.350 Y58.333 E0.06918
G1 X76.375 Y58.801 E0.06432
G1 X75.705 Y59.096 E0.04353
G1 X75.705 Y100.646 E2.47122
G1 X86.535 Y100.652 E0.64409
G1 X87.705 Y101.824 E0.09850
G1 X87.705 Y114.598 E0.75981
G1 X92.205 Y114.764 E0.26783
G1 X92.806 Y113.585 E0.07872
G1 X93.372 Y112.303 E0.08335
G1 X94.135 Y110.290 E0.12801
G1 X94.247 Y110.239 E0.00737
G1 X94.184 Y110.120 E0.00798
G1 X94.632 Y108.302 E0.11136
G1 X94.820 Y107.390 E0.05544
G1 X94.974 Y106.469 E0.05550
G1 X95.095 Y105.544 E0.05550
G1 X95.181 Y104.615 E0.05550
G1 X95.232 Y103.683 E0.05550
G1 X95.250 Y102.751 E0.05547
G1 X95.210 Y100.661 E0.12430
G1 X95.352 Y100.560 E0.01036
G1 X95.144 Y100.301 E0.01976
G1 X94.975 Y99.034 E0.07604
G1 X94.821 Y98.120 E0.05513
G1 X94.524 Y96.742 E0.08380
G1 X94.151 Y95.384 E0.08380
G1 X93.865 Y94.502 E0.05511
G1 X93.331 Y93.033 E0.09300
G1 X93.391 Y92.904 E0.00845
G1 X93.261 Y92.851 E0.00836
G1 X92.388 Y91.075 E0.11773
G1 X91.944 Y90.260 E0.05518
G1 X91.468 Y89.458 E0.05550
G1 X90.962 Y88.674 E0.05550
G1 X90.427 Y87.909 E0.05550
G1 X89.865 Y87.164 E0.05551
G1 X89.275 Y86.440 E0.05552
G1 X87.968 Y84.951 E0.11784
G1 X88.013 Y84.777 E0.01071
G1 X87.691 Y84.713 E0.01954
G1 X86.664 Y83.780 E0.08251
G1 X85.959 Y83.184 E0.05490
G1 X83.982 Y81.669 E0.14817
G1 X83.737 Y80.081 E0.09557
G1 X88.984 Y72.587 E0.54409
G1 X90.659 Y72.321 E0.10088
G1 X92.869 Y73.983 E0.16450
G1 X94.050 Y74.962 E0.09125
G1 X95.218 Y76.018 E0.09362
G1 X96.337 Y77.120 E0.09342
G1 X97.066 Y77.890 E0.06308
G1 X98.517 Y79.519 E0.12975
G1 X98.434 Y79.851 E0.02034
G1 X98.877 Y79.987 E0.02762
G1 X100.320 Y81.983 E0.14650
G1 X101.185 Y83.307 E0.09402
G1 X101.989 Y84.660 E0.09364
G1 X102.733 Y86.044 E0.09341
G1 X103.213 Y87.020 E0.06473
G1 X103.970 Y88.674 E0.10817
G1 X103.848 Y88.966 E0.01880
G1 X104.147 Y89.106 E0.01965
G1 X104.782 Y90.885 E0.11235
G1 X105.267 Y92.417 E0.09558
G1 X105.678 Y93.937 E0.09362
G1 X106.022 Y95.473 E0.09363
G1 X106.301 Y97.022 E0.09363
G1 X106.508 Y98.540 E0.09109
G1 X106.658 Y100.150 E0.09617
G1 X106.735 Y101.700 E0.09235
G1 X106.769 Y103.296 E0.09489
G1 X106.502 Y103.487 E0.01954
G1 X106.754 Y103.876 E0.02756
G1 X106.570 Y106.385 E0.14962
G1 X106.445 Y107.474 E0.06522
G1 X106.295 Y108.513 E0.06243
G1 X106.121 Y109.519 E0.06073
G1 X105.913 Y110.548 E0.06242
G1 X105.676 Y111.570 E0.06243
G1 X105.059 Y113.812 E0.13831
G1 X104.790 Y113.950 E0.01795
G1 X104.929 Y114.250 E0.01967
G1 X104.241 Y116.096 E0.11720
G1 X103.846 Y117.069 E0.06245
G1 X103.435 Y118.004 E0.06072
G1 X102.986 Y118.952 E0.06242
G1 X102.510 Y119.887 E0.06242
G1 X102.007 Y120.809 E0.06244
G1 X101.478 Y121.716 E0.06243
G1 X100.748 Y122.887 E0.08211
G1 X100.338 Y123.261 E0.03300
G1 X88.161 Y129.326 E0.80909
G1 X87.555 Y129.566 E0.03876
G1 X86.943 Y129.752 E0.03810
G1 X86.235 Y129.901 E0.04301
G1 X85.599 Y129.977 E0.03809
G1 X85.016 Y130.000 E0.03472
G1 X54.985 Y130.000 E1.78614
G1 X54.401 Y129.977 E0.03471
G1 X53.765 Y129.901 E0.03810
G1 X53.138 Y129.773 E0.03811
G1 X52.523 Y129.593 E0.03810
G1 X51.839 Y129.326 E0.04367
G1 X39.662 Y123.261 E0.80909
G1 X39.252 Y122.887 E0.03300
G1 X38.537 Y121.740 E0.08038
G1 X38.007 Y120.834 E0.06246
G1 X37.490 Y119.887 E0.06414
G1 X37.014 Y118.952 E0.06242
G1 X36.565 Y118.004 E0.06242
G1 X36.143 Y117.043 E0.06242
G1 X35.749 Y116.069 E0.06247
G1 X35.071 Y114.250 E0.11547
G1 X35.211 Y113.947 E0.01980
G1 X34.931 Y113.803 E0.01870
G1 X34.461 Y112.105 E0.10483
G1 X34.208 Y111.088 E0.06232
G1 X33.985 Y110.062 E0.06242
G1 X33.791 Y109.031 E0.06243
G1 X33.622 Y107.966 E0.06412
G1 X33.488 Y106.925 E0.06243
G1 X33.383 Y105.873 E0.06290
G1 X33.250 Y103.865 E0.11966
G1 X33.500 Y103.482 E0.02719
G1 X33.217 Y103.276 E0.02084
G1 X33.311 Y100.631 E0.15744
G1 X33.431 Y99.104 E0.09110
G1 X33.621 Y97.541 E0.09363
G1 X33.885 Y95.946 E0.09617
G1 X34.200 Y94.447 E0.09109
G1 X34.589 Y92.922 E0.09363
G1 X35.055 Y91.373 E0.09622
G1 X35.845 Y89.114 E0.14232
G1 X36.151 Y88.968 E0.02018
G1 X36.032 Y88.686 E0.01820
G1 X36.570 Y87.487 E0.07819
G1 X37.014 Y86.548 E0.06178
G1 X37.490 Y85.613 E0.06242
G1 X37.993 Y84.691 E0.06244
G1 X38.522 Y83.785 E0.06242
G1 X39.076 Y82.894 E0.06241
G1 X39.659 Y82.014 E0.06278
G1 X41.122 Y79.987 E0.14868
G1 X41.566 Y79.851 E0.02762
G1 X41.483 Y79.519 E0.02034
G1 X42.915 Y77.912 E0.12802
G1 X43.635 Y77.148 E0.06247
G1 X44.377 Y76.405 E0.06243
G1 X45.161 Y75.665 E0.06412
G1 X45.945 Y74.967 E0.06242
G1 X46.748 Y74.291 E0.06243
G1 X47.577 Y73.634 E0.06292
G1 X49.353 Y72.319 E0.13144
G1 X51.019 Y72.591 E0.10037
G1 X56.263 Y80.081 E0.54384
G1 X56.018 Y81.669 E0.09557
G1 X54.048 Y83.178 E0.14760
G1 X52.966 Y84.111 E0.08498
G1 X52.325 Y84.707 E0.05208
G1 X51.987 Y84.776 E0.02052
G1 X52.032 Y84.951 E0.01078
G1 X50.725 Y86.440 E0.11784
G1 X50.135 Y87.164 E0.05552
G1 X49.573 Y87.909 E0.05551
G1 X49.038 Y88.674 E0.05550
G1 X48.532 Y89.458 E0.05550
G1 X48.056 Y90.260 E0.05550
G1 X47.609 Y91.080 E0.05551
G1 X47.189 Y91.923 E0.05604
G1 X46.769 Y92.830 E0.05946
G1 X46.606 Y92.898 E0.01048
G1 X46.669 Y93.033 E0.00886
G1 X46.135 Y94.502 E0.09300
G1 X45.849 Y95.384 E0.05512
G1 X45.476 Y96.742 E0.08380
G1 X45.179 Y98.120 E0.08379
G1 X45.025 Y99.034 E0.05513
G1 X44.856 Y100.301 E0.07603
G1 X44.648 Y100.560 E0.01976
G1 X44.790 Y100.661 E0.01036
G1 X44.750 Y102.751 E0.12430
G1 X44.768 Y103.683 E0.05547
G1 X44.819 Y104.615 E0.05550
G1 X44.905 Y105.544 E0.05550
G1 X45.026 Y106.469 E0.05551
G1 X45.180 Y107.389 E0.05549
G1 X45.368 Y108.302 E0.05544
G1 X45.816 Y110.120 E0.11136
G1 X45.753 Y110.239 E0.00797
G1 X45.865 Y110.290 E0.00737
G1 X46.628 Y112.303 E0.12801
G1 X47.194 Y113.585 E0.08335
G1 X47.795 Y114.764 E0.07872
G1 X52.302 Y114.598 E0.26825
G1 X52.302 Y101.824 E0.75979
G1 X53.472 Y100.652 E0.09850
G1 X64.302 Y100.646 E0.64409
G1 X64.302 Y59.103 E2.47083
G1 X63.007 Y58.509 E0.08473
G1 X61.801 Y57.898 E0.08037
G1 X59.383 Y56.598 E0.16333
G1 X55.210 Y54.271 E0.28417
G1 X52.841 Y52.913 E0.16244
G1 X52.302 Y51.983 E0.06393
G1 X52.302 Y25.402 E1.58094
G1 X47.795 Y25.236 E0.26825
G1 X47.194 Y26.415 E0.07872
G1 X46.625 Y27.704 E0.08378
G1 X46.283 Y28.586 E0.05628
G1 X45.891 Y29.689 E0.06961
G1 X45.752 Y29.754 E0.00913
G1 X45.812 Y29.866 E0.00756
G1 X45.268 Y32.163 E0.14041
G1 X45.099 Y33.070 E0.05486
G1 X44.961 Y33.993 E0.05550
G1 X44.858 Y34.920 E0.05550
G1 X44.789 Y35.851 E0.05550
G1 X44.755 Y36.783 E0.05550
G1 X44.755 Y37.726 E0.05605
G1 X44.799 Y39.327 E0.09526
G1 X44.646 Y39.437 E0.01122
G1 X44.856 Y39.699 E0.01998
G1 X45.025 Y40.966 E0.07604
G1 X45.179 Y41.880 E0.05513
G1 X45.476 Y43.258 E0.08380
G1 X45.849 Y44.616 E0.08380
G1 X46.135 Y45.498 E0.05512
G1 X46.669 Y46.967 E0.09300
G1 X46.609 Y47.096 E0.00845
G1 X46.739 Y47.149 E0.00836
G1 X47.612 Y48.925 E0.11773
G1 X48.056 Y49.740 E0.05518
G1 X48.532 Y50.542 E0.05550
G1 X49.038 Y51.326 E0.05550
G1 X49.573 Y52.091 E0.05550
G1 X50.135 Y52.836 E0.05551
G1 X50.725 Y53.560 E0.05552
G1 X52.032 Y55.049 E0.11784
G1 X51.987 Y55.223 E0.01071
G1 X52.309 Y55.287 E0.01954
G1 X53.336 Y56.220 E0.08252
G1 X54.041 Y56.816 E0.05490
G1 X56.018 Y58.331 E0.14817
G1 X56.263 Y59.919 E0.09558
G1 X51.019 Y67.409 E0.54384
G1 X49.353 Y67.681 E0.10037
G1 X47.577 Y66.366 E0.13144
G1 X46.748 Y65.709 E0.06292
G1 X45.945 Y65.033 E0.06243
G1 X45.140 Y64.316 E0.06411
G1 X44.377 Y63.595 E0.06242
G1 X43.635 Y62.852 E0.06243
G1 X42.915 Y62.088 E0.06247
G1 X41.483 Y60.481 E0.12802
G1 X41.566 Y60.150 E0.02029
G1 X41.133 Y60.019 E0.02694
G1 X39.976 Y58.442 E0.11633
G1 X39.379 Y57.570 E0.06286
G1 X38.796 Y56.663 E0.06412
G1 X38.254 Y55.764 E0.06241
G1 X37.738 Y54.850 E0.06243
G1 X37.249 Y53.922 E0.06241
G1 X36.787 Y52.980 E0.06239
G1 X36.030 Y51.326 E0.10817
G1 X36.153 Y51.033 E0.01891
G1 X35.845 Y50.886 E0.02031
G1 X35.042 Y48.586 E0.14490
G1 X34.589 Y47.078 E0.09364
G1 X34.210 Y45.595 E0.09108
G1 X33.878 Y44.012 E0.09618
G1 X33.621 Y42.459 E0.09362
G1 X33.436 Y40.939 E0.09108
G1 X33.309 Y39.326 E0.09621
G1 X33.217 Y36.724 E0.15487
G1 X33.500 Y36.518 E0.02084
G1 X33.250 Y36.135 E0.02719
G1 X33.383 Y34.127 E0.11966
G1 X33.488 Y33.075 E0.06290
G1 X33.622 Y32.034 E0.06243
G1 X33.786 Y30.997 E0.06241
G1 X33.979 Y29.966 E0.06243
G1 X34.208 Y28.912 E0.06412
G1 X34.461 Y27.895 E0.06232
G1 X34.931 Y26.197 E0.10483
G1 X35.212 Y26.052 E0.01880
G1 X35.069 Y25.739 E0.02044
G1 X35.952 Y23.420 E0.14761
G1 X36.351 Y22.476 E0.06096
G1 X36.755 Y21.589 E0.05796
G1 X36.786 Y21.521 E0.00446
G1 F2220.000 E-1.60000
G1 X57.705 Y106.048 F15000.000
G1 F2220.000 E1.60000
G1 X82.302 Y106.048 F720.000 E1.46291
G1 X82.302 Y114.500 E0.50268
G1 X78.385 Y114.500 E0.23295
G1 X77.861 Y114.645 E0.03231
G1 X76.621 Y115.368 E0.08541
G1 X75.796 Y115.768 E0.05451
G1 X75.404 Y115.935 E0.02536
G1 X74.572 Y116.246 E0.05282
G1 X73.724 Y116.504 E0.05269
G1 X72.848 Y116.711 E0.05356
G1 X71.973 Y116.862 E0.05282
G1 X71.564 Y116.914 E0.02452
G1 X70.649 Y116.985 E0.05456
G1 X70.237 Y116.998 E0.02451
G1 X69.335 Y116.984 E0.05364
G1 X68.452 Y116.915 E0.05271
G1 X67.574 Y116.791 E0.05272
G1 X66.706 Y116.613 E0.05271
G1 X65.851 Y116.381 E0.05271
G1 X65.011 Y116.097 E0.05272
G1 X64.191 Y115.761 E0.05271
G1 X63.379 Y115.368 E0.05363
G1 X63.013 Y115.169 E0.02477
G1 X62.139 Y114.645 E0.06065
G1 X61.615 Y114.500 E0.03231
G1 X57.705 Y114.500 E0.23253
G1 X57.705 Y106.123 E0.49822
G1 X57.705 Y106.048 E0.00446
G1 F2220.000 E-1.60000
G1 X57.705 Y34.601 F15000.000
G1 F2220.000 E1.60000
G1 X57.705 Y25.500 F720.000 E0.54130
G1 X61.615 Y25.500 E0.23253
G1 X62.139 Y25.355 E0.03231
G1 X63.013 Y24.831 E0.06066
G1 X63.379 Y24.632 E0.02477
G1 X64.191 Y24.239 E0.05363
G1 X65.011 Y23.903 E0.05272
G1 X65.850 Y23.619 E0.05272
G1 X66.706 Y23.387 E0.05271
G1 X67.574 Y23.209 E0.05272
G1 X68.452 Y23.085 E0.05271
G1 X69.335 Y23.016 E0.05271
G1 X70.237 Y23.002 E0.05364
G1 X70.649 Y23.015 E0.02451
G1 X71.564 Y23.086 E0.05456
G1 X71.973 Y23.138 E0.02451
G1 X72.861 Y23.291 E0.05364
G1 X73.724 Y23.496 E0.05272
G1 X74.572 Y23.754 E0.05272
G1 X75.416 Y24.070 E0.05364
G1 X75.795 Y24.232 E0.02451
G1 X76.621 Y24.632 E0.05456
G1 X77.861 Y25.355 E0.08541
G1 X78.385 Y25.500 E0.03231
G1 X82.302 Y25.500 E0.23295
G1 X82.302 Y34.603 E0.54142
G1 X79.065 Y33.959 E0.19626
G1 X76.027 Y33.419 E0.18356
G1 X74.259 Y33.143 E0.10642
G1 X73.050 Y32.990 E0.07245
G1 X71.799 Y32.876 E0.07475
G1 X70.865 Y32.840 E0.05559
G1 X68.838 Y32.846 E0.12054
G1 X67.954 Y32.892 E0.05264
G1 X66.720 Y33.014 E0.07376
G1 X65.536 Y33.173 E0.07106
G1 X64.149 Y33.390 E0.08348
G1 X60.819 Y33.981 E0.20117
G1 X57.779 Y34.586 E0.18436
G1 X57.705 Y34.601 E0.00446
G1 F2220.000 E-1.60000
G1 X52.802 Y25.129 F15000.000
G1 F2220.000 E1.60000
G1 X53.003 Y24.927 F720.000 E0.01694
G1 X47.506 Y24.725 E0.32717
G1 X46.742 Y26.200 E0.09883
G1 X46.163 Y27.512 E0.08529
G1 X45.814 Y28.412 E0.05738
G1 X45.490 Y29.325 E0.05764
G1 X45.061 Y29.527 E0.02816
G1 X45.282 Y29.936 E0.02765
G1 X44.779 Y32.059 E0.12981
G1 X44.606 Y32.987 E0.05612
G1 X44.465 Y33.928 E0.05660
G1 X44.360 Y34.874 E0.05660
G1 X44.290 Y35.823 E0.05660
G1 X44.255 Y36.774 E0.05660
G1 X44.255 Y37.733 E0.05701
G1 X44.292 Y39.076 E0.07993
G1 X43.926 Y39.340 E0.02681
G1 X44.379 Y39.904 E0.04302
G1 X44.531 Y41.041 E0.06824
G1 X44.687 Y41.975 E0.05632
G1 X44.990 Y43.377 E0.08531
G1 X45.370 Y44.760 E0.08531
G1 X45.662 Y45.660 E0.05631
G1 X46.128 Y46.943 E0.08120
G1 X45.933 Y47.363 E0.02753
G1 X46.375 Y47.541 E0.02836
G1 X47.168 Y49.155 E0.10697
G1 X47.621 Y49.987 E0.05636
G1 X48.107 Y50.806 E0.05660
G1 X48.623 Y51.605 E0.05660
G1 X49.168 Y52.385 E0.05660
G1 X49.742 Y53.145 E0.05661
G1 X50.343 Y53.883 E0.05662
G1 X51.482 Y55.180 E0.10269
G1 X51.371 Y55.612 E0.02648
G1 X52.076 Y55.750 E0.04272
G1 X53.006 Y56.596 E0.07476
G1 X53.727 Y57.206 E0.05615
G1 X55.555 Y58.606 E0.13695
G1 X55.739 Y59.797 E0.07168
G1 X50.730 Y66.950 E0.51934
G1 X49.481 Y67.153 E0.07527
G1 X47.857 Y65.951 E0.12016
G1 X47.062 Y65.319 E0.06042
G1 X46.269 Y64.653 E0.06158
G1 X45.481 Y63.950 E0.06284
G1 X44.744 Y63.254 E0.06030
G1 X44.011 Y62.522 E0.06158
G1 X43.285 Y61.753 E0.06288
G1 X42.032 Y60.346 E0.11204
G1 X42.168 Y59.810 E0.03289
G1 X41.437 Y59.589 E0.04540
G1 X40.381 Y58.149 E0.10618
G1 X39.782 Y57.273 E0.06317
G1 X39.222 Y56.402 E0.06157
