; generated by Slic3r 0.9.7 on 2013-08-01 at 20:32:16

; layer_height = 0.15
; perimeters = 2
; top_solid_layers = 3
; bottom_solid_layers = 2
; fill_density = 0.3
; perimeter_speed = 20
; infill_speed = 30
; travel_speed = 250
; scale = 1
; nozzle_diameter = 0.5
; filament_diameter = 1.7
; extrusion_multiplier = 0.9
; perimeters extrusion width = 0.50mm
; infill extrusion width = 0.50mm
; first layer extrusion width = 0.50mm

M107
M190 S57 ; wait for bed temperature to be reached
M104 S200 ; set temperature
G1 Z0.15 F200
G1 X15 Y20 F12000
M109 S200 ; wait for temperature to be reached
G90 ; use absolute coordinates
G21 ; set units to millimeters
M83 ; use relative distances for extrusion
G1 F2220.000 E-1.60000
G1 Z0.300 F15000.000
G1 X36.740 Y44.485
G1 F2220.000 E1.60000
G1 X36.960 Y44.315 F480.000 E0.01654
G1 X37.420 Y44.015 E0.03266
G1 X37.900 Y43.745 E0.03276
G1 X49.890 Y37.775 E0.79663
G1 X50.790 Y37.415 E0.05765
G1 X51.650 Y37.125 E0.05398
G1 X52.230 Y36.975 E0.03563
G1 X53.230 Y36.785 E0.06054
G1 X53.700 Y36.725 E0.02818
G1 X55.000 Y36.655 E0.07743
G1 X84.990 Y36.655 E1.78370
G1 X86.290 Y36.725 E0.07743
G1 X87.290 Y36.875 E0.06014
G1 X87.760 Y36.975 E0.02858
G1 X88.340 Y37.125 E0.03563
G1 X88.790 Y37.265 E0.02803
G1 X89.640 Y37.585 E0.05402
G1 X90.200 Y37.825 E0.03624
G1 X102.090 Y43.745 E0.78998
G1 X102.800 Y44.165 E0.04906
G1 X103.250 Y44.485 E0.03284
G1 X103.460 Y44.665 E0.01645
G1 X104.050 Y45.245 E0.04921
G1 X104.560 Y45.895 E0.04914
G1 X105.370 Y47.195 E0.09110
G1 X105.870 Y48.055 E0.05917
G1 X106.520 Y49.235 E0.08013
G1 X106.970 Y50.115 E0.05879
G1 X107.550 Y51.355 E0.08142
G1 X107.950 Y52.265 E0.05912
G1 X108.470 Y53.535 E0.08162
G1 X108.950 Y54.845 E0.08298
G1 X109.640 Y57.015 E0.13543
G1 X109.910 Y57.995 E0.06046
G1 X110.150 Y58.955 E0.05885
G1 X110.510 Y60.645 E0.10277
G1 X110.750 Y62.045 E0.08448
G1 X110.920 Y63.255 E0.07267
G1 X111.110 Y64.995 E0.10410
G1 X111.200 Y66.325 E0.07928
G1 X111.240 Y68.785 E0.14633
G1 X111.210 Y70.085 E0.07734
G1 X111.110 Y71.775 E0.10069
G1 X110.890 Y73.825 E0.12263
G1 X110.620 Y75.605 E0.10708
G1 X110.330 Y77.065 E0.08853
G1 X109.920 Y78.775 E0.10459
G1 X109.360 Y80.715 E0.12010
G1 X108.660 Y82.795 E0.13053
G1 X107.800 Y84.915 E0.13607
G1 X107.230 Y86.175 E0.08225
G1 X106.790 Y87.065 E0.05905
G1 X106.170 Y88.235 E0.07875
G1 X105.690 Y89.095 E0.05858
G1 X104.330 Y91.285 E0.15333
G1 X103.770 Y92.105 E0.05906
G1 X103.050 Y93.095 E0.07281
G1 X102.700 Y93.535 E0.03344
G1 X101.370 Y95.185 E0.12605
G1 X100.330 Y96.365 E0.09355
G1 X99.520 Y97.225 E0.07027
G1 X98.810 Y97.935 E0.05972
G1 X97.820 Y98.865 E0.08079
G1 X97.080 Y99.525 E0.05897
G1 X96.180 Y100.285 E0.07006
G1 X95.260 Y101.015 E0.06985
G1 X94.030 Y101.935 E0.09136
G1 X93.570 Y102.255 E0.03333
G1 X93.330 Y102.395 E0.01653
G1 X92.580 Y102.755 E0.04948
G1 X92.050 Y102.945 E0.03349
G1 X91.510 Y103.085 E0.03318
G1 X90.960 Y103.185 E0.03325
G1 X90.690 Y103.215 E0.01616
G1 X90.130 Y103.235 E0.03333
G1 X49.860 Y103.235 E2.39512
G1 X49.310 Y103.215 E0.03273
G1 X49.030 Y103.185 E0.01675
G1 X48.760 Y103.145 E0.01623
G1 X48.220 Y103.025 E0.03290
G1 X47.690 Y102.865 E0.03293
G1 X47.430 Y102.765 E0.01657
G1 X47.170 Y102.655 E0.01679
G1 X46.680 Y102.405 E0.03272
G1 X45.980 Y101.955 E0.04949
G1 X44.890 Y101.145 E0.08077
G1 X43.810 Y100.285 E0.08211
G1 X42.910 Y99.525 E0.07006
G1 X42.170 Y98.865 E0.05897
G1 X41.180 Y97.935 E0.08079
G1 X40.470 Y97.225 E0.05972
G1 X39.660 Y96.365 E0.07027
G1 X38.620 Y95.185 E0.09355
G1 X37.290 Y93.535 E0.12605
G1 X36.220 Y92.105 E0.10623
G1 X35.530 Y91.085 E0.07324
G1 X34.300 Y89.095 E0.13914
G1 X33.200 Y87.065 E0.13732
G1 X32.760 Y86.175 E0.05905
G1 X32.190 Y84.915 E0.08225
G1 X31.430 Y83.055 E0.11951
G1 X30.730 Y81.025 E0.12771
G1 X30.220 Y79.345 E0.10442
G1 X29.850 Y77.905 E0.08843
G1 X29.420 Y75.875 E0.12342
G1 X29.180 Y74.405 E0.08859
G1 X28.940 Y72.405 E0.11981
G1 X28.800 Y70.605 E0.10738
G1 X28.750 Y69.085 E0.09045
G1 X28.790 Y66.325 E0.16417
G1 X28.880 Y64.995 E0.07928
G1 X29.000 Y63.795 E0.07173
G1 X29.170 Y62.485 E0.07857
G1 X29.320 Y61.505 E0.05897
G1 X29.560 Y60.265 E0.07512
G1 X29.840 Y58.955 E0.07967
G1 X30.350 Y57.015 E0.11931
G1 X31.160 Y54.485 E0.15800
G1 X31.730 Y53.005 E0.09433
G1 X32.260 Y51.735 E0.08185
G1 X32.760 Y50.645 E0.07132
G1 X33.200 Y49.755 E0.05905
G1 X34.300 Y47.725 E0.13732
G1 X35.440 Y45.895 E0.12823
G1 X35.770 Y45.455 E0.03271
G1 X36.130 Y45.045 E0.03245
G1 X36.683 Y44.534 E0.04479
G1 X36.740 Y44.485 E0.00446
G1 F2220.000 E-1.60000
G1 X39.665 Y47.903 F15000.000
G1 F2220.000 E1.60000
G1 X51.849 Y41.835 F480.000 E0.80957
G1 X52.523 Y41.572 E0.04301
G1 X53.138 Y41.392 E0.03809
G1 X53.765 Y41.264 E0.03811
G1 X54.401 Y41.188 E0.03809
G1 X54.984 Y41.165 E0.03472
G1 X85.016 Y41.165 E1.78614
G1 X85.681 Y41.195 E0.03963
G1 X86.316 Y41.278 E0.03811
G1 X86.862 Y41.392 E0.03318
G1 X87.477 Y41.572 E0.03809
G1 X88.079 Y41.803 E0.03832
G1 X100.338 Y47.904 E0.81444
G1 X100.748 Y48.278 E0.03300
G1 X101.478 Y49.449 E0.08211
G1 X102.007 Y50.356 E0.06243
G1 X102.510 Y51.278 E0.06244
G1 X102.986 Y52.213 E0.06242
G1 X103.435 Y53.161 E0.06242
G1 X103.857 Y54.122 E0.06242
G1 X104.241 Y55.069 E0.06074
G1 X104.929 Y56.915 E0.11720
G1 X104.789 Y57.218 E0.01980
G1 X105.069 Y57.362 E0.01870
G1 X105.539 Y59.060 E0.10483
G1 X105.793 Y60.081 E0.06255
G1 X106.121 Y61.642 E0.09490
G1 X106.295 Y62.652 E0.06094
G1 X106.444 Y63.685 E0.06210
G1 X106.617 Y65.289 E0.09592
G1 X106.750 Y67.300 E0.11988
G1 X106.501 Y67.681 E0.02703
G1 X106.776 Y67.879 E0.02015
G1 X106.715 Y70.014 E0.12702
G1 X106.613 Y71.581 E0.09343
G1 X106.450 Y73.104 E0.09108
G1 X106.215 Y74.661 E0.09363
G1 X105.915 Y76.206 E0.09364
G1 X105.548 Y77.737 E0.09363
G1 X105.116 Y79.251 E0.09363
G1 X104.619 Y80.746 E0.09374
G1 X104.138 Y82.066 E0.08355
G1 X103.848 Y82.201 E0.01900
G1 X103.970 Y82.491 E0.01870
G1 X103.213 Y84.145 E0.10817
G1 X102.738 Y85.112 E0.06409
G1 X102.248 Y86.040 E0.06242
G1 X101.746 Y86.929 E0.06073
G1 X101.204 Y87.828 E0.06241
G1 X100.637 Y88.711 E0.06243
G1 X100.045 Y89.578 E0.06245
G1 X98.844 Y91.196 E0.11985
G1 X98.434 Y91.317 E0.02542
G1 X98.517 Y91.646 E0.02018
G1 X97.085 Y93.253 E0.12802
G1 X96.365 Y94.017 E0.06247
G1 X95.623 Y94.760 E0.06243
G1 X94.839 Y95.500 E0.06412
G1 X94.055 Y96.198 E0.06241
G1 X93.274 Y96.856 E0.06073
G1 X92.453 Y97.509 E0.06242
G1 X90.621 Y98.848 E0.13495
G1 X88.976 Y98.567 E0.09927
G1 X83.737 Y91.084 E0.54329
G1 X83.982 Y89.496 E0.09557
G1 X85.959 Y87.981 E0.14817
G1 X86.664 Y87.385 E0.05490
G1 X87.691 Y86.452 E0.08252
G1 X88.013 Y86.388 E0.01954
G1 X87.968 Y86.214 E0.01071
G1 X89.275 Y84.725 E0.11784
G1 X89.865 Y84.001 E0.05552
G1 X90.427 Y83.256 E0.05551
G1 X90.962 Y82.491 E0.05550
G1 X91.468 Y81.707 E0.05550
G1 X91.944 Y80.905 E0.05550
G1 X92.388 Y80.090 E0.05518
G1 X93.261 Y78.314 E0.11773
G1 X93.391 Y78.261 E0.00836
G1 X93.331 Y78.132 E0.00845
G1 X93.865 Y76.663 E0.09300
G1 X94.151 Y75.781 E0.05512
G1 X94.524 Y74.423 E0.08380
G1 X94.821 Y73.046 E0.08380
G1 X94.975 Y72.131 E0.05513
G1 X95.144 Y70.864 E0.07604
G1 X95.352 Y70.605 E0.01976
G1 X95.210 Y70.504 E0.01036
G1 X95.250 Y68.414 E0.12430
G1 X95.232 Y67.482 E0.05547
G1 X95.181 Y66.550 E0.05550
G1 X95.095 Y65.621 E0.05550
G1 X94.974 Y64.696 E0.05550
G1 X94.820 Y63.775 E0.05550
G1 X94.632 Y62.863 E0.05544
G1 X94.184 Y61.045 E0.11135
G1 X94.247 Y60.926 E0.00798
G1 X94.135 Y60.875 E0.00737
G1 X93.372 Y58.862 E0.12801
G1 X92.806 Y57.580 E0.08335
G1 X92.205 Y56.401 E0.07872
G1 X85.051 Y56.664 E0.42583
G1 X78.385 Y56.665 E0.39645
G1 X77.861 Y56.520 E0.03231
G1 X76.621 Y55.797 E0.08541
G1 X75.795 Y55.397 E0.05456
G1 X75.416 Y55.235 E0.02451
G1 X74.572 Y54.919 E0.05364
G1 X73.724 Y54.661 E0.05272
G1 X72.861 Y54.456 E0.05272
G1 X71.973 Y54.303 E0.05364
G1 X71.564 Y54.252 E0.02451
G1 X70.649 Y54.180 E0.05456
G1 X70.237 Y54.167 E0.02451
G1 X69.335 Y54.181 E0.05364
G1 X68.452 Y54.250 E0.05271
G1 X67.574 Y54.374 E0.05271
G1 X66.706 Y54.552 E0.05272
G1 X65.850 Y54.784 E0.05271
G1 X65.011 Y55.068 E0.05272
G1 X64.191 Y55.404 E0.05272
G1 X63.379 Y55.797 E0.05363
G1 X63.013 Y55.996 E0.02477
G1 X62.139 Y56.520 E0.06066
G1 X61.615 Y56.665 E0.03231
G1 X54.949 Y56.664 E0.39645
G1 X47.795 Y56.401 E0.42583
G1 X47.194 Y57.580 E0.07872
G1 X46.625 Y58.869 E0.08378
G1 X46.283 Y59.751 E0.05628
G1 X45.891 Y60.854 E0.06961
G1 X45.752 Y60.919 E0.00913
G1 X45.812 Y61.031 E0.00756
G1 X45.268 Y63.328 E0.14041
G1 X45.099 Y64.235 E0.05486
G1 X44.961 Y65.158 E0.05550
G1 X44.858 Y66.085 E0.05550
G1 X44.789 Y67.016 E0.05551
G1 X44.755 Y67.948 E0.05550
G1 X44.755 Y68.891 E0.05605
G1 X44.799 Y70.492 E0.09526
G1 X44.646 Y70.602 E0.01122
G1 X44.856 Y70.864 E0.01998
G1 X45.025 Y72.131 E0.07604
G1 X45.179 Y73.046 E0.05513
G1 X45.476 Y74.423 E0.08379
G1 X45.849 Y75.781 E0.08380
G1 X46.135 Y76.663 E0.05512
G1 X46.669 Y78.132 E0.09300
G1 X46.609 Y78.261 E0.00845
G1 X46.739 Y78.314 E0.00836
G1 X47.612 Y80.090 E0.11773
G1 X48.056 Y80.905 E0.05518
G1 X48.532 Y81.707 E0.05550
G1 X49.038 Y82.491 E0.05550
G1 X49.573 Y83.256 E0.05550
G1 X50.135 Y84.001 E0.05551
G1 X50.725 Y84.725 E0.05552
G1 X52.032 Y86.214 E0.11784
G1 X51.987 Y86.388 E0.01071
G1 X52.309 Y86.452 E0.01954
G1 X53.336 Y87.385 E0.08252
G1 X54.041 Y87.981 E0.05490
G1 X56.018 Y89.496 E0.14817
G1 X56.263 Y91.084 E0.09557
G1 X51.019 Y98.574 E0.54384
G1 X49.353 Y98.846 E0.10037
G1 X47.550 Y97.510 E0.13347
G1 X46.726 Y96.856 E0.06259
G1 X45.945 Y96.198 E0.06073
G1 X45.140 Y95.481 E0.06411
G1 X44.377 Y94.760 E0.06242
G1 X43.655 Y94.038 E0.06073
G1 X42.915 Y93.253 E0.06417
G1 X41.483 Y91.646 E0.12802
G1 X41.566 Y91.315 E0.02029
G1 X41.133 Y91.184 E0.02694
G1 X39.976 Y89.607 E0.11633
G1 X39.379 Y88.735 E0.06286
G1 X38.811 Y87.852 E0.06241
G1 X38.254 Y86.929 E0.06412
G1 X37.738 Y86.015 E0.06243
G1 X37.249 Y85.087 E0.06241
G1 X36.799 Y84.171 E0.06072
G1 X36.030 Y82.491 E0.10985
G1 X36.153 Y82.198 E0.01891
G1 X35.845 Y82.051 E0.02031
G1 X35.055 Y79.792 E0.14232
G1 X34.589 Y78.244 E0.09622
G1 X34.200 Y76.718 E0.09364
G1 X33.878 Y75.177 E0.09363
G1 X33.621 Y73.624 E0.09363
G1 X33.436 Y72.104 E0.09109
G1 X33.311 Y70.534 E0.09365
G1 X33.217 Y67.889 E0.15744
G1 X33.500 Y67.683 E0.02084
G1 X33.250 Y67.300 E0.02719
G1 X33.386 Y65.259 E0.12168
G1 X33.491 Y64.212 E0.06259
G1 X33.622 Y63.199 E0.06073
G1 X33.786 Y62.163 E0.06241
G1 X33.985 Y61.103 E0.06413
G1 X34.208 Y60.077 E0.06242
G1 X34.461 Y59.060 E0.06233
G1 X34.931 Y57.362 E0.10483
G1 X35.212 Y57.217 E0.01880
G1 X35.069 Y56.904 E0.02044
G1 X35.938 Y54.619 E0.14543
G1 X36.362 Y53.614 E0.06483
G1 X36.799 Y52.660 E0.06243
G1 X37.262 Y51.718 E0.06242
G1 X37.752 Y50.790 E0.06242
G1 X38.254 Y49.901 E0.06073
G1 X39.259 Y48.270 E0.11392
G1 X39.609 Y47.953 E0.02811
G1 X39.665 Y47.903 E0.00446
G1 X39.949 Y48.320 F15000.000
G1 X52.059 Y42.288 F480.000 E0.80466
G1 X52.675 Y42.048 E0.03933
G1 X53.250 Y41.880 E0.03564
G1 X53.837 Y41.759 E0.03564
G1 X54.432 Y41.687 E0.03564
G1 X54.990 Y41.665 E0.03318
G1 X85.010 Y41.665 E1.78553
G1 X85.630 Y41.693 E0.03686
G1 X86.224 Y41.769 E0.03565
G1 X86.810 Y41.895 E0.03563
G1 X87.325 Y42.048 E0.03195
G1 X87.886 Y42.265 E0.03581
G1 X100.053 Y48.321 E0.80831
G1 X100.361 Y48.601 E0.02475
G1 X101.037 Y49.686 E0.07604
G1 X101.559 Y50.580 E0.06160
G1 X102.066 Y51.508 E0.06286
G1 X102.535 Y52.430 E0.06157
G1 X102.979 Y53.366 E0.06157
G1 X103.386 Y54.294 E0.06030
G1 X103.776 Y55.253 E0.06159
G1 X104.388 Y56.895 E0.10417
G1 X104.134 Y57.443 E0.03590
G1 X104.645 Y57.706 E0.03418
G1 X105.057 Y59.190 E0.09162
G1 X105.306 Y60.197 E0.06167
G1 X105.629 Y61.732 E0.09331
G1 X105.802 Y62.734 E0.06046
G1 X105.949 Y63.752 E0.06120
G1 X106.118 Y65.327 E0.09421
G1 X106.240 Y67.167 E0.10965
G1 X105.822 Y67.807 E0.04548
G1 X106.269 Y68.130 E0.03277
G1 X106.216 Y69.986 E0.11047
G1 X106.116 Y71.533 E0.09220
G1 X105.953 Y73.045 E0.09044
G1 X105.722 Y74.581 E0.09235
G1 X105.425 Y76.105 E0.09237
G1 X105.063 Y77.615 E0.09235
G1 X104.637 Y79.108 E0.09236
G1 X104.146 Y80.585 E0.09257
G1 X103.739 Y81.700 E0.07060
G1 X103.201 Y81.951 E0.03528
G1 X103.424 Y82.482 E0.03427
G1 X102.760 Y83.934 E0.09494
G1 X102.294 Y84.882 E0.06282
G1 X101.811 Y85.797 E0.06157
G1 X101.312 Y86.680 E0.06030
G1 X100.767 Y87.585 E0.06284
G1 X100.207 Y88.456 E0.06156
G1 X99.634 Y89.293 E0.06033
G1 X98.545 Y90.763 E0.10881
G1 X97.832 Y90.973 E0.04425
G1 X97.968 Y91.511 E0.03302
G1 X96.715 Y92.918 E0.11204
G1 X96.003 Y93.671 E0.06161
G1 X95.256 Y94.419 E0.06285
G1 X94.503 Y95.129 E0.06157
G1 X93.731 Y95.818 E0.06157
G1 X92.938 Y96.484 E0.06158
G1 X92.127 Y97.128 E0.06158
G1 X90.500 Y98.320 E0.11999
G1 X89.266 Y98.109 E0.07445
G1 X84.261 Y90.962 E0.51893
G1 X84.445 Y89.771 E0.07168
G1 X86.273 Y88.371 E0.13694
G1 X86.994 Y87.761 E0.05615
G1 X87.924 Y86.915 E0.07476
G1 X88.629 Y86.777 E0.04272
G1 X88.518 Y86.345 E0.02648
G1 X89.657 Y85.048 E0.10269
G1 X90.258 Y84.310 E0.05662
G1 X90.832 Y83.550 E0.05661
G1 X91.377 Y82.770 E0.05660
G1 X91.893 Y81.971 E0.05660
G1 X92.379 Y81.152 E0.05660
G1 X92.832 Y80.320 E0.05636
G1 X93.625 Y78.706 E0.10697
G1 X94.067 Y78.528 E0.02836
G1 X93.872 Y78.108 E0.02753
G1 X94.338 Y76.825 E0.08119
G1 X94.630 Y75.925 E0.05631
G1 X95.010 Y74.542 E0.08531
G1 X95.312 Y73.140 E0.08531
G1 X95.469 Y72.206 E0.05632
G1 X95.621 Y71.069 E0.06824
G1 X96.073 Y70.506 E0.04293
G1 X95.715 Y70.250 E0.02617
G1 X95.750 Y68.415 E0.10919
G1 X95.732 Y67.464 E0.05658
G1 X95.679 Y66.513 E0.05660
G1 X95.592 Y65.566 E0.05660
G1 X95.469 Y64.622 E0.05660
G1 X95.311 Y63.684 E0.05660
G1 X95.119 Y62.752 E0.05655
G1 X94.715 Y61.111 E0.10053
G1 X94.938 Y60.693 E0.02818
G1 X94.530 Y60.506 E0.02675
G1 X93.835 Y58.672 E0.11660
G1 X93.258 Y57.365 E0.08497
G1 X92.494 Y55.890 E0.09883
G1 X85.037 Y56.165 E0.44383
G1 X78.453 Y56.165 E0.39159
G1 X78.060 Y56.056 E0.02424
G1 X77.235 Y55.561 E0.05725
G1 X76.849 Y55.352 E0.02609
G1 X76.003 Y54.942 E0.05595
G1 X75.602 Y54.771 E0.02590
G1 X74.732 Y54.445 E0.05526
G1 X73.854 Y54.178 E0.05457
G1 X72.962 Y53.966 E0.05457
G1 X72.046 Y53.808 E0.05526
G1 X71.614 Y53.754 E0.02590
G1 X70.676 Y53.681 E0.05595
G1 X70.241 Y53.667 E0.02590
G1 X69.312 Y53.682 E0.05526
G1 X68.397 Y53.753 E0.05456
G1 X67.489 Y53.881 E0.05457
G1 X66.590 Y54.065 E0.05457
G1 X65.705 Y54.305 E0.05456
G1 X64.836 Y54.599 E0.05457
G1 X63.987 Y54.947 E0.05457
G1 X63.151 Y55.352 E0.05525
G1 X62.765 Y55.562 E0.02609
G1 X61.940 Y56.056 E0.05725
G1 X61.547 Y56.165 E0.02424
G1 X54.963 Y56.165 E0.39159
G1 X47.506 Y55.890 E0.44383
G1 X47.393 Y56.088 E0.01360
G1 X46.742 Y57.365 E0.08524
G1 X46.163 Y58.677 E0.08529
G1 X45.814 Y59.577 E0.05738
G1 X45.490 Y60.490 E0.05764
G1 X45.061 Y60.692 E0.02816
G1 X45.282 Y61.101 E0.02766
G1 X44.779 Y63.225 E0.12981
G1 X44.606 Y64.152 E0.05612
G1 X44.465 Y65.093 E0.05660
G1 X44.360 Y66.039 E0.05660
G1 X44.290 Y66.988 E0.05660
G1 X44.255 Y67.939 E0.05660
G1 X44.255 Y68.898 E0.05701
G1 X44.292 Y70.241 E0.07993
G1 X43.926 Y70.505 E0.02681
G1 X44.379 Y71.069 E0.04301
G1 X44.531 Y72.206 E0.06824
G1 X44.688 Y73.140 E0.05632
G1 X44.990 Y74.542 E0.08531
G1 X45.370 Y75.925 E0.08531
G1 X45.662 Y76.825 E0.05631
G1 X46.128 Y78.108 E0.08119
G1 X45.933 Y78.528 E0.02753
G1 X46.375 Y78.706 E0.02836
G1 X47.168 Y80.320 E0.10697
G1 X47.621 Y81.152 E0.05636
G1 X48.107 Y81.971 E0.05660
G1 X48.623 Y82.770 E0.05660
G1 X49.168 Y83.550 E0.05660
G1 X49.742 Y84.310 E0.05661
G1 X50.343 Y85.048 E0.05662
G1 X51.482 Y86.345 E0.10269
G1 X51.371 Y86.777 E0.02648
G1 X52.076 Y86.915 E0.04272
G1 X53.006 Y87.761 E0.07476
G1 X53.727 Y88.371 E0.05615
G1 X55.555 Y89.771 E0.13695
G1 X55.739 Y90.962 E0.07168
G1 X50.730 Y98.115 E0.51934
G1 X49.481 Y98.318 E0.07527
G1 X47.857 Y97.116 E0.12016
G1 X47.062 Y96.484 E0.06042
G1 X46.269 Y95.818 E0.06158
G1 X45.481 Y95.115 E0.06284
G1 X44.744 Y94.419 E0.06030
G1 X44.011 Y93.687 E0.06158
G1 X43.285 Y92.918 E0.06288
G1 X42.032 Y91.511 E0.11204
G1 X42.168 Y90.975 E0.03289
G1 X41.437 Y90.754 E0.04540
G1 X40.381 Y89.314 E0.10618
G1 X39.782 Y88.438 E0.06317
G1 X39.233 Y87.585 E0.06029
G1 X38.699 Y86.698 E0.06158
G1 X38.179 Y85.778 E0.06285
G1 X37.696 Y84.863 E0.06156
G1 X37.249 Y83.953 E0.06029
G1 X36.576 Y82.482 E0.09620
G1 X36.799 Y81.951 E0.03428
G1 X36.248 Y81.689 E0.03626
